!!!!SEGMENT: pl-wtm--r-1352_stefani-jozef--uwertura-i-wyjatki-z-baletu-igraszki-kupidyna.krn
!!!cenid: 18xx:2407
!!!COM: Stefani, Józef
!!!COM-rismID: pe30024097
!!!CDT: 1800/04/16-1876/03/19
!!!CNT: Polish
!!!OTL: Uwertura i wyjątki z baletu Igraszki Kupidyna
!!!PDT:
!!!AGN: Secular
!!!SMS-siglum: PL-Wtm
!!!SMS-shelfmark: R 1352
!!!SMS-shelfwork: W
!!!SMS-variant:
!!!SMS-altvar:
!!!NIFC-rismSourceID: 1001119480
!!!NIFC-islandoraID: pl-wtm:25300
!!!URL-pdf-islandora: https://repozytorium.nifc.pl/islandora/object/pl-wtm%3A25300/datastream/PDF/view
!!!URL-scan: https://polish.musicsources.pl/pl/lokalizacje/galeria/rekopisy/6204 @EN{Scan on Polish Music Sources Website} @PL{Skany w portalu Dziedzictwo Muzyki Polskiej w otwartym dostępie}
!!!ONB-nifc: UWAGA: bez podziału na części
!!!OMD: allegro.
!!!AIN: 1 forte
!!!key:
**kern	**kern	**dynam
*part1	*part1	*part1
*staff2	*staff1	*
*Iforte	*Iforte	*
*I"Forte-piano	*I"Forte-piano	*
*clefF4	*clefG2	*
*k[f#c#]	*k[f#c#]	*
*G:	*G:	*
*M3/4	*M3/4	*
*>[A,B,B,C,C1,C,C2,D,E,E,F,F1,F,F2,G,G,H,H,I,I,J,J,K,K1,K,K2,L]	*>[A,B,B,C,C1,C,C2,D,E,E,F,F1,F,F2,G,G,H,H,I,I,J,J,K,K1,K,K2,L]	*
=1	=1	=1
*>A	*>A	*
*all\right	*all\right	*
*2\right	*2\right	*
!l	!LO:TX:a:i:t=/&colon; Ouverture &colon;/	!
(>16F#LL 16D^>\	4ddd 4ff# 4dd\	f
16A\	.	p
16F# 16D\	.	.
16A\JJ	.	.
8F# 8D\)	8r	.
!	!LO:TUP:a:problem=klamra łukowa	!
8r	24a\LL	.
.	24b\	.
.	24cc#\JJ	.
8A 8F# 8D\	8dd\L	.
!	!LO:TUP:a:problem=klamra łukowa	!
8r	24aa\L	.
.	24bb\	.
.	24ccc#\JJ	.
=2	=2	=2
(>16F#LL 16D^>\	4ddd\	.
16A\	.	.
16F# 16D\	.	.
16A\JJ	.	.
8F# 8D\)	8r	.
!	!LO:TUP:a:problem=klamra łukowa	!
8r	24a\LL	.
.	24b\	.
.	24cc#\JJ	.
8A 8F# 8D\	8dd\L	.
8r	(>32aa\LL	.
.	32bb\	.
.	32ccc#\	.
.	32ddd\JJJ	.
=3	=3	=3
(>16GLL 16E 16C#^>\	4eee\)	.
16A\	.	.
16G 16E 16C#\	.	.
16A\JJ	.	.
8G 8E 8C#\)	8r	.
8r	(>32a\LLL	.
.	32b\	.
.	32cc#\	.
.	32dd\JJJ	.
8A 8G 8E 8C#\	8ee\L)	.
8r	(32aa\LL	.
.	32bb\	.
.	32ccc#\	.
.	32ddd\JJJ	.
=4	=4	=4
16GLL 16E 16C#^>\	4eee\)	.
16A\	.	.
16G 16E 16C#\	.	.
16A\JJ	.	.
8G 8E 8C#\	8r	.
8r	(>32a\LLL	.
.	32b\	.
.	32cc#\	.
.	32dd\JJJ	.
8A 8G 8E 8C#\	8ee\L)	.
!	!LO:TUP:a:problem=klamra łukowa	!
8r	24aa\L	.
.	24bb\	.
.	24ccc#\JJ	.
=5	=5	=5
16F#LL 16D^>\	4ddd\	.
16A\	.	.
16F# 16D\	.	.
16A\JJ	.	.
8F# 8D\	8r	.
!	!LO:TUP:a:problem=klamra łukowa	!
8r	24a\LL	.
.	24b\	.
.	24cc#\JJ	.
8d 8A 8F# 8D\	8dd\L	.
8r	(>32aa\LL	.
.	32bb\	.
.	32ccc#\	.
.	32ddd\JJJ	.
!!LO:LB:g=original
=6	=6	=6
16BLL 16G#X 16E^>\	4eee\)	.
16d\	.	.
16B 16G# 16E\	.	.
16d\JJ	.	.
8B 8G# 8E\	8r	.
8r	(<32e/LLL	.
.	32f#/	.
.	32g#X/	.
.	32a/JJJ	.
8d 8B 8G#X 8E\	8b/)	.
8r	(>32gg#X\LLL	.
.	32aa\	.
.	32bb\	.
.	32ccc#\JJJ	.
=7	=7	=7
16BLL 16G#X 16E^>\	4ddd\)	.
16d\	.	.
16B 16G# 16E\	.	.
16d\JJ	.	.
8B 8G# 8E\	8r	.
!	!LO:TX:t=P:problem=łuk zaczyna się od dołu (idzie pod 16.e i 32f#, a dalej nad nutami)	!
8r	(16.e/LL	.
.	32f#/JJk	.
8d 8B 8G# 8E\	32g#X\LLL	.
.	32a\	.
.	32b\	.
.	32cc#\	.
8r	32dd\	.
.	32ee\	.
.	32ff#\	.
.	32gg#X\JJJ)	.
=8	=8	=8
*^	*	*
!	!	!LO:TX:t=P:problem=mixed beam	!
8c#L 8A\	4ryy	8aa\L	.
16r	.	16r	ff
16AJk 16E 16AA\	.	16a/Jk 16c#/	.
2A;>/	2E 2AA\	2a 2c#;>/	.
*v	*v	*	*
=9||	=9||	=9||
*tremolo	*	*
(>16ELL 16C# 16AA#X\	8.r	fp
16Gn\	.	.
16E 16C# 16AA#\	.	.
16Gn\	16ee 16e/|	.
16E 16C# 16AA#\	(<2ggn 2gn/	.
16Gn\	.	.
16E 16C# 16AA#\	.	.
16Gn\	.	.
16E 16C# 16AA#\	.	.
16Gn\	.	.
16E 16C# 16AA#\	.	.
16Gn\JJ)	.	.
=10	=10	=10
(>16ELL 16C# 16AA#X\	8eeL 8e/)	.
16Gn\	.	.
16E 16C# 16AA#\	16r	.
16G\	16eeJk 16e/|	.
16E 16C# 16AA#\	[>2gg [<2g/	.
16G\	.	.
16E 16C# 16AA#\	.	.
16G\	.	.
16E 16C# 16AA#\	.	.
16G\	.	.
16E 16C# 16AA#\	.	.
16G\JJ)	.	.
!!LO:LB:g=original
=11	=11	=11
(>16ELL 16C# 16AAn\	4gg] 4g\]	.
16G\	.	.
16E 16C# 16AAn\	.	.
16G\	.	.
16E 16C# 16AAn\	4.ee\ 4.e\	.
16G\	.	.
16E 16C# 16AAn\	.	.
16G\	.	.
16E 16C# 16AAn\	.	.
16G\	.	.
16E 16C# 16AAn\	8gg 8g\	.
16G\JJ)	.	.
=12	=12	=12
(>16FnLL 16D\	8ffn 8fn/	.
16A\	.	.
16F 16D\	16r	.
16A\	16dd 16d/|	.
16F 16D\	2ff/ 2f/	.
16A\	.	.
16F 16D\	.	.
16A\	.	.
16F 16D\	.	.
16A\	.	.
16F 16D\	.	.
16A\JJ)	.	.
=13	=13	=13
(>16DLL 16BB-X\	8ddL 8d/	.
16Fn\	.	.
16D 16BB-\	16r	.
16Fn\	16ddJk 16d/	.
16D 16BB-\	2ffn 2fn/	.
16Fn\	.	.
16D 16BB-\	.	.
16Fn\	.	.
16D 16BB-\	.	.
16Fn\	.	.
16D 16BB-\	.	.
16Fn\JJ)	.	.
=14	=14	=14
(<16DLL 16BBn 16GG#X/	8ddL 8d/	.
16Fn/	.	.
16D 16BB 16GG#/	16r	.
16Fn/	16dd/Jk|	.
16D 16BB 16GG#/	(>8.ffn\L	.
16Fn/	.	.
16D 16BB 16GG#/	.	.
16Fn/	32gg\LL	.
.	32ff\JJJ	.
16D 16BB 16GG#/	8ee\L	.
16Fn/	.	.
16D 16BB 16GG#/	8dd\J	.
16Fn/JJ)	.	.
*Xtremolo	*	*
=15	=15	=15
16C#LL 16AA/	8cc#\)	.
16E/	.	.
16C# 16AA/	8r	f
16E/JJ	.	.
*rep	*	*
16C#LL 16AA/	8aa 8cc# 8a^<\	.
16E/	.	.
16C# 16AA/	16ee\LL	.
16E/JJ	16ffn\JJ	.
*Xrep	*	*
*rep	*	*
16C#LL 16AA/	16gg#X\LL	.
16E/	16aa\	.
16C# 16AA/	16ee\	.
16E/JJ	16ggn\JJ	.
*Xrep	*	*
=16	=16	=16
16DLL 16BBn 16GG#X/	8ffn\	.
16Fn/	.	.
16D 16BB 16GG#/	8r	f
16F/JJ	.	.
*rep	*	*
16DLL 16BB 16GG#/	8ddd 8ff 8dd^<\	.
16F/	.	.
16D 16BB 16GG#/	16dd\LL	.
16F/JJ	16ee\JJ	.
*Xrep	*	*
*rep	*	*
16DLL 16BB 16GG#/	16gg\LL	.
16F/	16ffn\	.
16D 16BB 16GG#/	16ee\	.
16F/JJ	16dd\JJ	.
*Xrep	*	*
!!LO:LB:g=original
=17	=17	=17
*tremolo	*	*
16C#LL 16AA/	8cc#\	.
16E/	.	.
16C# 16AA/	8r	.
16E/	.	.
16C# 16AA/	8aa 8cc# 8a^<\	.
16E/	.	.
16C# 16AA/	16ee\LL	.
16E/	16ffn\JJ	.
16C# 16AA/	16gg#X\LL	.
16E/	16aa\	.
16C# 16AA/	16ee\	.
16E/JJ	16ggn\JJ	.
=18	=18	=18
*	*	*
16DLL 16BBn 16GG#X/	8ffn\	.
16Fn/	.	.
16D 16BB 16GG#/	8r	.
16Fn/	.	.
16D 16BB 16GG#/	8ddd 8ff 8dd^<\	.
16Fn/	.	.
16D 16BB 16GG#/	16dd\LL	.
16Fn/	16ee\JJ	.
16D 16BB 16GG#/	16gg\LL	.
16Fn/	16ff\	.
16D 16BB 16GG#/	16ee\	.
16Fn/JJ	16dd\JJ	.
*Xtremolo	*	*
=19	=19	=19
8E 8C# 8AA/	8cc#\	.
(<32AA/LLL	(>32a\LLL	.
32BB/	32b\	.
32C#/	32cc#\	.
32D/JJJ	32dd\JJJ	.
8E/L)	8ee\L)	.
(<32E/LL	(>32ee\LL	.
32D/	32dd\	.
32C#/	32cc#\	.
32BB/JJJ	32b\JJJ	.
8AA/)	8a\L)	.
8r	16r	.
.	16ggnJk 16gn\|	.
=20	=20	=20
4r	(>8.ggL 8.g\	.
.	16eeJk 16e\)	.
8r	8cc# 8c#/	.
(>32C#\LLL	(>32cc#\LLL	.
32D\	32dd\	.
32E\	32ee\	.
32F#\JJJ	32ff#\JJJ	.
8G\L)	8gg\L)	.
(>32G\LL	(>32gg\LL	.
32F#\	32ff#\	.
32E\	32ee\	.
32D\JJJ	32dd\JJJ	.
=21	=21	=21
8C#/)	8cc#\L)	.
8r	16r	.
.	16bbJk 16b\|	.
4r	(>8.bbL 8.b\	.
.	16gg\Jk)	.
8r	8ee\L	.
(>32E\LLL	(>32ee\LL	.
32F#\	32ff#\	.
32G\	32gg\	.
32A\JJJ	32aa\JJJ	.
!!LO:LB:g=original
=22	=22	=22
8B\L)	8bb\L)	.
(>32B\LL	(>32bb\LL	.
32A\	32aa\	.
32G\	32gg\	.
32F#\JJJ	32ff#\JJJ	.
8E\L)	8ee\L)	.
(>32G\LL	(>32gg\LL	.
32F#\	32ff#\	.
32E\	32ee\	.
32D\JJJ	32dd\JJJ	.
8C#\L)	8cc#\L)	.
(>32E\LL	(>32ee\LL	.
32D\	32dd\	.
32C#\	32cc#\	.
32BB\JJJ	32b\JJJ	.
=23	=23	=23
(<16AA/LL)	4a/)	.
16GG#X/	.	.
16AA/	.	.
16GG#/JJ)	.	.
*rep	*	*
(<16AA/LL	4r	.
16GG#X/	.	.
16AA/	.	p
16GG#/JJ)	.	.
*Xrep	*	*
*rep	*	*
(<16AA/LL	8eeL 8cc#\|	.
16GG#X/	.	.
16AA/	16r	.
16GG#/JJ)	16eeJk 16cc#\|	.
*Xrep	*	*
=24	=24	=24
!LO:TX:a:t=P:problem=dwie pierwsze grupy na dolnej pięciolinii połączone łukiem; łuk się nie wyświetla ze względu na zastosowanie znaków repetycji	!	!
(<16AA/LL	8ffnL 8dd\	.
16GG#X/	.	.
16AA/	16r	.
16GG#/JJ	(>32ggLL 32ee\	.
.	32ffJJJ 32dd\	.
*rep	*	*
16AA/LL	8eeL 8cc#\)	.
16GG#X/	.	.
16AA/	16r	.
16GG#/JJ)	(>32ffLL 32dd\	.
.	32eeJJJ 32cc#\	.
*Xrep	*	*
*rep	*	*
16AA/LL	8ddL 8b\)	.
16GG#X/	.	.
16AA/	16r	.
16GG#/JJ	(>32eeLL 32cc#\	.
.	32ddJJJ 32b\	.
*Xrep	*	*
=25	=25	=25
!LO:TX:a:t=P:problem=wszystkie nuty na dolnej pięciolinii połączone łukiem; łuk się nie wyświetla ze względu na zastosowanie znaków repetycji	!	!
(<16AA/LL	(>4cc# 4a^<\)|	.
16GG#X/	.	.
16AA/	.	.
16GG#/JJ	.	.
*rep	*	*
16AA/LL	8ee 8cc#\)	.
16GG#X/	.	.
16AA/	8r	.
16GG#/JJ	.	.
*Xrep	*	*
*rep	*	*
16AA/LL	8eeL 8cc#\|	.
16GG#X/	.	.
16AA/	16r	.
16GG#/JJ)	16eeJk 16cc#\|	.
*Xrep	*	*
=26	=26	=26
!LO:TX:a:t=P:problem=wszystkie nuty na dolnej pięciolinii połączone łukiem; łuk się nie wyświetla ze względu na zastosowanie znaków repetycji	!	!
(<16AA/LL	8ffnL 8dd\|	.
16GG#X/	.	.
16AA/	16r	.
16GG#/JJ	(>32ggLL 32ee\	.
.	32ffJJJ 32dd\	.
*rep	*	*
16AA/LL	8eeL 8cc#\)|	.
16GG#X/	.	.
16AA/	16r	.
16GG#/JJ	(>32ffLL 32dd\	.
.	32eeJJJ 32cc#\	.
*Xrep	*	*
*rep	*	*
16AA/LL	8ddL 8b\)	.
16GG#X/	.	.
16AA/	16r	.
16GG#/JJ)	(>32eeLL 32cc#\	.
.	32ddJJJ 32b\	f
*Xrep	*	*
=	=	=
*tremolo	*	*
8AAL 8AAA/	4aa 4cc# 4a\)	.
8AAJ 8AAA/	.	.
*Xtremolo	*	*
4r	4r	.
!LO:TX:a:i:t=V&colon;S&colon;	!	!
8r;>	8r;>	.
!!LO:PB:g=original
=27||	=27||	=27||
!!!OMD: andante
*M6/8	*M6/8	*
8A\	(>8a 8c#^</	.
=28	=28	=28
!	!	!LO:DY:rj
(>4B\	4g#X 4d/	p
8c#\	8gn 8e/	.
4d\)	4f# 4d/)	.
8A\	(>8a 8c#/	.
=29	=29	=29
(>4B\	4g#X 4d/	.
8c#\)	8gn 8e/	.
4d\	4f# 4d/)	.
(>16d\LL	[>8dd 8f#/	.
16cn\JJ)	.	.
=30	=30	=30
4B\	4dd] 4g/	.
8r	(>8e 8c#/	.
4r	8eL 8c#/	.
.	8f# 8d/	.
8r	8gJ 8e/	.
=31	=31	=31
16r	4a 4f#/	.
(>16AA\LL	.	.
16D\	.	.
16F#\	.	.
16A\	8g 8e/	.
16A#X\JJ)	.	.
4B\	4f# 4d/)	.
8cn\	8f# 8d/	.
=32	=32	=32
*	*^	*
(>4B\	4g/	4.d\	.
8F#\	8a/	.	.
8.G\)	8.b/L	8.d\L	.
16r	(>16dd/L	16b\L	.
8r	16cc#/	16a\	.
.	16b/JJ)	16g\JJ	.
*	*v	*v	*
!!LO:LB:g=original
=33	=33	=33
4.A\	16r	.
.	16aLL 16f#/	.
.	16a 16f#/	.
.	16a 16f#/	.
.	16a 16f#/	.
.	16aJJ 16f#/	.
16qAA/	.	.
(>8A\L	16r	<
.	16a 16f#/	.
8G#X\	16r	.
.	16b 16fn 16d/	.
8Gn\J)	16r	.
.	16cc# 16a 16e/	.
=34	=34	=34
!	!LO:N:vis=8	!
4.F#\	16r	[
.	16ddLL 16a 16d/	.
.	16dd 16a 16d/	.
.	16dd 16a 16d/	.
.	16dd 16a 16d/	.
.	16ddJJ 16a 16d/	.
8G\	16r	f
.	16b 16g/|	.
8r	(<16cc#LL 16a/	.
.	16b 16g/	.
8r	16a 16f#/	.
.	16gJJ 16e/)	.
=35	=35	=35
*	*^	*
8A\L	8f#L 8d/	4ryy	.
8F#\	8a 8d/	.	.
8D\J	8ddJ 8f#/	8ryy	.
[4AA\	8dd/L	4.g 4.e\	.
.	16cc#/L	.	.
.	16b/J	.	.
8A 8AA/]	8cc#/J	.	.
*	*v	*v	*
=36	=36	=36
8A 8D\	16dd 16f# 16d/	.
!	!	!LO:DY:rj
.	16aa\|	p
8r	(>16gg#X\LL	.
.	16aa\	.
8r	16bb\	.
.	16aa\JJ)	.
*clefG2	*	*
4.g 4.e/	16r	.
.	(>16aa\LL|	.
.	16gg#\	.
.	16aa\	.
.	16bb\	.
.	16aa\JJ)	.
!!LO:LB:g=original
=37	=37	=37
4.f# 4.d/	16r	.
.	(>16aa\LL|	.
.	16gg#X\	.
.	16aa\	.
.	16bb\	.
.	16aa\JJ)	.
*tremolo	*	*
8gL 8e 8c# 8A/	(>16ccc#'\LL	.
.	16bb'\	.
8g 8e 8c# 8A/	16aa'\	.
.	16ggn'\	.
8gJ 8e 8c# 8A/	16ff#'\	.
.	16ee'\JJ)	.
=38	=38	=38
8f# 8d/	16dd\	.
.	16a/LL|	pp
8r	(<16g#X/	.
.	16a/	.
8r	16b/	.
.	16a/JJ)	.
*clefF4	*	*
4.Gn 4.E\	16r	.
.	16a/LL|	.
.	(<16g#X/	.
.	16a/	.
.	16b/	.
.	16a/JJ)	.
=39	=39	=39
4.F# 4.D\	16r	.
.	(<16a/LL|	.
.	16g#X/	.
.	16a/	.
.	16b/	.
.	16a/JJ)	.
8GL 8E 8C# 8AA/	(<16cc#'/LL	.
.	16b'/	.
8G 8E 8C# 8AA/	16a'/	.
.	16gn'/	.
8GJ 8E 8C# 8AA/	16f#'/	.
.	16e'/JJ)	.
=40||	=40||	=40||
*k[fncnb-e-]	*k[fncnb-e-]	*
*M4/4	*M4/4	*
*met(c)	*met(c)	*
!!!OMD: allo molto
*	*tremolo	*
!LO:TX:a:t=P:problem=w źródle kasowniki na początku taktu na wysokościach F i C	!LO:TX:a:t=P:problem=w źródle kasowniki na początku taktu na wysokościach ff i cc	!
!LO:TX:b:t=....	!	!LO:DY:rj
8FnL 8D 8BB-X'/	(<16ddLL 16fn/	f
.	16d/	.
8F 8D 8BB-'/	16dd 16f/	.
.	16d/	.
8F 8D 8BB-'/	16dd 16f/	.
.	16d/	.
8FJ 8D 8BB-'/	16dd 16f/	.
.	16d/)JJ	.
8F 8D 8BB-/	8dd 8f/	.
!LO:TX:a:t=3	!	!
(<16AA/LL	8r	.
16BB-/JJ	.	.
16C/LL	4r	.
16BB-/	.	.
16AA/	.	.
16GG/JJ)	.	.
!!LO:LB:g=original
=41	=41	=41
!LO:TX:b:t=....	!	!
8FL 8C 8FF'/	(>16ffLL 16a\	.
.	16f\	.
8F 8C 8FF'/	16ff 16a\	.
.	16f\	.
8F 8C 8FF'/	16ff 16a\	.
.	16f\	.
8FJ 8C 8FF'/	16ff 16a\	.
.	16f\JJ)	.
8F 8C 8FF/	8ff 8a\	.
8r	(>16ff\LL	.
.	16gg\JJ	.
4r	16ff\LL	.
.	16ee-\	.
.	16dd\	.
.	16cc\JJ)	.
=42	=42	=42
!LO:TX:b:t=....	!	!
8FL 8D 8BB-X'/	16ddLL 16f/	.
.	16d/	.
8F 8D 8BB-'/	16dd 16f/	.
.	16d/	.
8F 8D 8BB-'/	16dd 16f/	.
.	16d/	.
8FJ 8D 8BB-'/	16dd 16f/	.
.	16d/JJ	.
8F 8D 8BB-/	8dd 8f/	.
(<16AA/LL	8r	.
16BB-/JJ	.	.
16C/LL	4r	.
16BB-/	.	.
16AA/	.	.
16GG/JJ)	.	.
*Xtremolo	*	*
=43	=43	=43
8FL 8C 8FF/	(>16ffLL 16a\	.
.	16f\	.
8F 8C 8FF/	16ff 16a\	.
.	16f\	.
8F 8C 8FF/	16ff 16a\	.
.	16f\	.
8FJ 8C 8FF/	16ff 16a\	.
.	16f\JJ)	.
8F 8C 8FF/	8ff 8a\	.
8r	(>16ff\LL	.
.	16gg\JJ	.
4r	16ff\LL	.
.	16ee-\	.
.	16dd\	.
.	16cc\JJ)	.
=44	=44	=44
*tremolo	*	*
8B-L 8BB-\	16ddLL 16fn/	.
.	16d/	.
8B- 8BB-\	16dd 16f/	.
.	16d/	.
8B- 8BB-\	16dd 16f/	<
.	16d/	.
8B-J 8BB-\	16dd 16f/	.
.	16d/JJ	.
8B-L 8BB-\	16eenLL 16dd/	.
.	16en/	.
8B- 8BB-\	16ee 16dd/	.
.	16en/	.
8B- 8BB-\	16ee 16dd/	.
.	16en/	.
8B-J 8BB-\	16ee 16dd/	.
.	16en/JJ	.
=45	=45	=45
8B-L 8BB-\	16ffnLL 16dd/	.
.	16fn/	.
8B- 8BB-\	16ff 16dd/	.
.	16fn/	.
8B- 8BB-\	16ff 16dd/	.
.	16fn/	.
8B-J 8BB-\	16ff 16dd/	.
.	16fn/JJ	.
8B-L 8BB-\	16ggLL 16dd/	.
.	16g/	.
8B- 8BB-\	16gg 16dd/	[
.	16g/	.
8B- 8BB-\	16gg 16dd/	.
.	16g/	.
8B-J 8BB-\	16gg 16dd/	.
.	16g/JJ	.
!!LO:LB:g=original
=46	=46	=46
8AL 8AA\	(>16aaLL 16cc#X^<\	.
.	16a\	.
8A 8AA\	16aa 16cc#\	.
.	16a\	.
8A 8AA\	16aa 16cc#\	.
.	16a\	.
8AJ 8AA\	16aa 16cc#\	.
.	16a\JJ)	.
8A 8AA\	8aa 8cc#\	.
(>16G#X\LL	8r	.
16A\JJ	.	.
16B-\LL	4r	.
16A\	.	.
16G#\	.	.
16A\JJ)	.	.
=47	=47	=47
8AL 8Fn 8D\	(>16dddLL 16ffn\	.
.	16dd\	.
8A 8F 8D\	16ddd 16ff\	.
.	16dd\	.
8A 8F 8D\	16ddd 16ff\	.
.	16dd\	.
8AJ 8F 8D\	16ddd 16ff\	.
.	16dd\JJ)	.
8A 8F 8D\	8ddd 8ff\	.
8r	(>16ccc#X\LL	.
.	16ddd\JJ	.
4r	16eeen\LL	.
.	16ddd\	.
.	16ccc#\	.
.	16ddd\JJ)	.
=48	=48	=48
!LO:SIC:v:s=En	!	!
8AL 8E- 8AA\	(>16ccc#XLL 16aa\	.
!	!LO:SIC:v:s=een	!
.	16ee-\	.
!LO:SIC:v:s=En	!	!
8A 8E- 8AA\	16ccc# 16aa\	.
!	!LO:SIC:v:s=een	!
.	16ee-\	.
!LO:SIC:v:s=En	!	!
8A 8E- 8AA\	16ccc# 16aa\	.
!	!LO:SIC:v:s=een	!
.	16ee-\	.
!LO:SIC:v:s=En	!	!
8AJ 8E- 8AA\	16ccc# 16aa\	.
!	!LO:SIC:v:s=een	!
.	16ee-\JJ)	.
!LO:SIC:v:s=En	!	!
8A 8E- 8AA\	8ccc# 8aa\	.
(>16G#X\LL	8r	.
16A\JJ	.	.
16B-X\LL	4r	.
16A\	.	.
16G#\	.	.
16A\JJ)	.	.
=49	=49	=49
8AL 8Fn 8D\	(>16dddLL 16ffn\	.
.	16dd\	.
8A 8F 8D\	16ddd 16ff\	.
.	16dd\	.
8A 8F 8D\	16ddd 16ff\	.
.	16dd\	.
8AJ 8F 8D\	16ddd 16ff\	.
.	16dd\JJ)	.
8A 8F 8D\	8ddd 8ff\	.
8r	(>16ccc#X\LL	.
.	16ddd\JJ	.
4r	16eeen\LL	.
.	16ddd\	.
.	16ccc#\	.
.	16ddd\JJ)	.
!!LO:PB:g=original
=50	=50	=50
*^	*	*
4AA/	2AA\	16ccc#X\LL	.
.	.	16bb-X\	.
.	.	16aa\	.
.	.	16bb-\JJ	.
4A 4En 4C#X/	.	16aa\LL	.
.	.	16gg\	.
.	.	16ffn\	.
.	.	16een\JJ	.
4D/	2D\	16ff\LL	.
.	.	16ee\	.
.	.	16dd\	.
.	.	16ee\JJ	.
4A 4Fn/	.	16ff\LL	.
.	.	16ee\	.
.	.	16ff\	.
.	.	16dd\JJ	.
=51	=51	=51	=51
4AA/	2AA\	16cc#X\LL	.
.	.	16bb-X\	.
.	.	16aa\	.
.	.	16bb-\JJ	.
4A 4En 4C#X/	.	16aa\LL	.
.	.	16gg\	.
.	.	16ffn\	.
!	!	!LO:SIC:v:s=een	!
.	.	16ee-\JJ	.
4D/	2D\	16ff\LL	.
!	!	!LO:SIC:v:s=een	!
.	.	16ee-\	.
.	.	16dd\	.
!	!	!LO:SIC:v:s=een	!
.	.	16ee-\JJ	.
4A 4Fn/	.	16ff\LL	.
!	!	!LO:SIC:v:s=een	!
.	.	16ee-\	.
.	.	16ff\	.
.	.	16dd\JJ	.
*v	*v	*	*
=52	=52	=52
4A 4En 4C#X 4AA/	16cc#X\LL	.
.	16a\	.
.	16bn\	.
.	16cc#\JJ	.
4A 4Fn 4D/	16dd\LL	.
.	16een\	.
.	16ff\	.
.	16dd\JJ	.
4A 4E 4C# 4AA/	16cc#\LL	.
.	16a\	.
.	16b\	.
.	16cc#\JJ	.
4A 4F 4D\	16dd\LL	.
.	16ee\	.
.	16ff\	.
.	16dd\JJ	.
=53	=53	=53
*rep	*rep	*
4A 4En 4C#X 4AA/	16cc#X\LL	.
.	16a\	.
.	16bn\	.
.	16cc#\JJ	.
4A 4Fn 4D/	16dd\LL	.
.	16een\	.
.	16ff\	.
.	16dd\JJ	.
4A 4E 4C# 4AA/	16cc#\LL	.
.	16a\	.
.	16b\	.
.	16cc#\JJ	.
4A 4F 4D\	16dd\LL	.
.	16ee\	.
.	16ff\	.
.	16dd\JJ	.
*Xrep	*Xrep	*
!!LO:LB:g=original
=54||	=54||	=54||
*k[bnenf#c#]	*k[bnenf#c#]	*
*M3/4	*M3/4	*
!!!OMD: allo..
!	!	!LO:DY:rj
8A 8En 8C#X 8AA\	4cc#X\	f
16r	.	.
16A 16AA\|	.	.
[>2A^> 2AA\	4r	.
.	4r	.
=55	=55	=55
!	!	!LO:DY:rj
2.A] 2.AA\	4r	p
.	4r	.
.	8a\L|	.
.	16r	.
.	16dd\Jk|	.
=56	=56	=56
*^	*	*
8.r	4D\	(>4ff#^<\	.
16A 16F#/	.	.	.
[>4A 4F#/	4r	8dd\)	.
.	.	8r	.
4A/]	4A 4AA\	8ff#\L|	.
.	.	16r	.
.	.	16gg\Jk|	.
=57	=57	=57	=57
8.r	4D\	(>4aa^<\	.
16A 16F#/	.	.	.
[>4A 4F#/	4r	8dd\)	.
.	.	8r	.
4A/]	4AA\	8ee\L|	.
.	.	16r	.
.	.	16dd\Jk|	.
=58	=58	=58	=58
8.r	4E\	(>4.cc#\	.
16A 16G/	.	.	.
[>4A 4G/	4r	.	.
.	.	8dd\L	.
4A/]	4AA\	8ee\	.
.	.	8cc#\J)	.
=59	=59	=59	=59
8.r	4D\	(>4dd\	.
16A 16F#/	.	.	.
[>4A 4F#/	4r	8a\)	.
.	.	8r	.
4A/]	4AA\	8a\L|	.
.	.	16r	.
.	.	16dd\Jk|	.
!!LO:LB:g=original
=60	=60	=60	=60
8.r	4D\	(>4ff#\	.
16A 16F#/	.	.	.
[>4A 4F#/	4r	8dd\)	.
.	.	8r	.
4A/]	4AA\	8ff#\L|	.
.	.	16r	.
.	.	16gg\Jk|	.
=61	=61	=61	=61
8.r	4D\	(>4aa\	.
16A 16F#/	.	.	.
[>4A 4F#/	4r	8dd\)	.
.	.	8r	.
4A/]	4AA\	8ee\L|	.
.	.	16r	.
.	.	16dd\Jk|	.
=62	=62	=62	=62
8.r	4E\	4.cc#\	.
16A 16G/	.	.	.
[>4A 4G/	4r	.	.
.	.	(>8dd\L	.
4A/]	4AA\	8ee\	.
.	.	8cc#\J)	.
=63	=63	=63	=63
8.r	4D\	(>4dd\	.
16A 16F#/	.	.	.
[>4A 4F#/	4r	8ddd\)	.
.	.	8r	.
4A/]	4AA\	8dd\L|	.
.	.	16r	.
.	.	16ee\Jk|	.
=64	=64	=64	=64
8.r	4AA#X\	(>4ff#\	.
16F# 16E 16C#/	.	.	.
[>4F# 4E 4C#/	4r	8cc#\)	.
.	.	16r	.
.	.	16gg\KL|	.
4F#/]	4FF#\	8ff#\|	.
.	.	16r	.
.	.	16ee\Jk|	.
=65	=65	=65	=65
8.r	4BB\	(>4dd\	.
16F# 16D/	.	.	.
[>4F# 4D/	4r	8b\)	.
.	.	8r	.
4F#/]	4FF#\	8bbL 8b\|	.
.	.	16r	.
.	.	16bbJk 16b\|	.
!!LO:LB:g=original
=66	=66	=66	=66
8.r	2.GG\	(>4.bb 4.b\	.
16E 16D 16BB'</	.	.	.
4E 4BB/	.	.	<
.	.	8dddL 8dd\	.
4E#X 4BB/	.	8ccc# 8cc#\	.
.	.	8bbJ 8b\)	[[
=67	=67	=67	=67
8.r	4FF#\	(>4aa#X 4a#X\	.
16F# 16C# 16AA#X/	.	.	.
[>4F# 4C# 4AA#/	4r	8ff#\)	.
.	.	8r	.
4F#/]	4FF#\	8ff#\L|	.
.	.	16r	.
.	.	16gg\Jk|	.
=68	=68	=68	=68
8.r	4AA#X\	(>4ff#\	.
16F# 16E 16C#/	.	.	.
[>4F# 4E 4C#/	4r	8cc#\)	.
.	.	16r	.
.	.	16cc#\KL|	.
4F#/]	4FF#\	8ff#\|	.
.	.	16r	.
.	.	16ee\Jk|	.
=69	=69	=69	=69
8.r	4BB\	(>4dd\	.
16F# 16D/	.	.	.
[>4F# 4D/	4r	8b\)	.
.	.	8r	.
4F#/]	4FF#\	8bbL 8b\|	.
.	.	16r	.
.	.	16bbJk 16b\|	.
=70	=70	=70	=70
8.r	2.GG\	4.bb 4.b\	.
16E 16BB'/	.	.	.
4E 4BB/	.	.	.
.	.	(>8dddL 8dd\	.
4E#X 4BB/	.	8ccc# 8cc#\	.
.	.	8bbJ 8b\)	.
*v	*v	*	*
=71	=71	=71
*tremolo	*	*
(<16C#LL 16AA#X 16FF#/	(>16aa#XLL 16a#X\	.
16F#/	16ff#\)	.
16C# 16AA# 16FF#/	16ff#'\	.
16F#/	16ff#'\JJ	.
!	!LO:TX:b:i:t=cresc&colon; poco a poco:problem=dynamics with spaces	!LO:HP:b:i:t=cresc&colon; poco a poco:ext=[spaces]
16C# 16AA# 16FF#/	(>16gg\LL	<
16F#/	16ff#\)	.
16C# 16AA# 16FF#/	16ff#'\	.
16F#/	16ff#'\JJ	.
16C# 16AA# 16FF#/	(>16cc#\LL	.
16F#/	16ff#\)	.
16C# 16AA# 16FF#/	16ff#'\	.
16F#/JJ)	16ff#'\JJ	.
!!LO:LB:g=original
=72	=72	=72
16DLL 16BB 16FF#/	(>16dd\LL	.
16F#/	16ff#\)	.
16D 16BB 16FF#/	16ff#'\	.
16F#/	16ff#'\JJ	.
16D 16BB 16FF#/	(>16ddd\LL	.
16F#/	16ff#\)	.
16D 16BB 16FF#/	16ff#'\	.
16F#/	16ff#'\JJ	.
16D 16BB 16FF#/	(>16bb\LL	.
16F#/	16ff#\)	.
16D 16BB 16FF#/	16ff#'\	.
16F#/JJ	16ff#'\JJ	.
=73	=73	=73
!LO:TX:t=P:problem=# błędnie przy C zamiast AA	!	!
!LO:SIC:v:s=AA#	!	!
16C#XLL 16AA 16FF#/	(>16aa#X\LL	.
16F#/	16ff#\)	.
!LO:SIC:v:s=AA#	!	!
16C# 16AA 16FF#/	16ff#'\	.
16F#/	16ff#'\JJ	.
!LO:SIC:v:s=AA#	!	!
16C# 16AA 16FF#/	(>16ee#X\LL	.
16F#/	16ff#\)	.
!LO:SIC:v:s=AA#	!	!
16C# 16AA 16FF#/	16ff#'\	.
16F#/	16ff#'\JJ	.
!LO:SIC:v:s=AA#	!	!
16C# 16AA 16FF#/	(>16cc#\LL	.
16F#/	16ff#\)	.
!LO:SIC:v:s=AA#	!	!
16C# 16AA 16FF#/	16ff#'\	.
16F#/JJ	16ff#'\JJ	.
=74	=74	=74
16DLL 16BB 16FF#/	(>16dd\LL	.
16F#/	16ff#\)	.
16D 16BB 16FF#/	16ff#'\	.
16F#/	16ff#'\JJ	.
16D 16BB 16FF#/	(>16ddd\LL	.
16F#/	16ff#\)	.
16D 16BB 16FF#/	16ff#'\	.
16F#/	16ff#'\JJ	[
16D 16BB 16FF#/	(>16bb\LL	.
16F#/	16ff#\)	.
16D 16BB 16FF#/	16ff#'\	.
16F#/JJ	16ff#'\JJ	.
=75	=75	=75
16C#LL 16AA#X 16FF#/	(>16aa#X\LL	.
16F#/	16ff#\)	.
16C# 16AA# 16FF#/	16ff#'\	.
16F#/	16ff#'\JJ	.
16C# 16AA# 16FF#/	(>16ee#X\LL	.
16F#/	16ff#\)	.
16C# 16AA# 16FF#/	16ff#'\	.
16F#/	16ff#'\JJ	.
16C# 16AA# 16FF#/	(>16cc#\LL	.
16F#/	16ff#\)	.
16C# 16AA# 16FF#/	16ff#'\	.
16F#/JJ	16ff#'\JJ	.
=76	=76	=76
16DLL 16BB 16FF#/	(>16dd\LL	.
16F#/	16ff#\)	.
16D 16BB 16FF#/	16ff#'\	.
16F#/	16ff#'\JJ	.
16D 16BB 16FF#/	(>16bb\LL	.
16F#/	16ff#\)	.
16D 16BB 16FF#/	16ff#'\	.
16F#/	16ff#'\JJ	.
16D 16BB 16FF#/	(>16ddd\LL	.
16F#/	16ff#\)	.
16D 16BB 16FF#/	16ff#'\	.
!	!LO:TX:b:i:t=V&colon; S&colon;	!
16F#/JJ	16ff#'\JJ	.
!!LO:PB:g=original
=77	=77	=77
16BBLL 16GG\	(>16bb\LL	.
16E\	16ee\)	.
16BB 16GG\	16ee'\	.
16E\JJ	16ee'\JJ	.
*rep	*	*
16BBLL 16GG\	(>16bb\LL	.
16E\	16ee\)	.
16BB 16GG\	16ee'\	.
16E\JJ	16ee'\JJ	.
*Xrep	*	*
16BBLL 16GG\	(>16bb\LL	.
16E#X\	16ee#X\)	.
16BB 16GG\	16ee#'\	.
16E#\JJ	16ee#'\JJ	.
=78	=78	=78
8F# 8C# 8AA#X 8FF#\	8ff#\	.
8r	8r	.
!	!	!LO:DY:rj
4F# 4C# 4AA#X 4FF#\	[<4f#/	f
4r	16f#/LL]	.
.	(<32g#X/L	.
.	32a#X/	.
.	32b/	.
.	32cc#/	.
.	32dd#X/	.
.	32ee#X/JJJ	.
=79	=79	=79
4r	8ff#\)	.
.	8r	.
!	!	!LO:DY:t=ffo
[>4F#\	[>4ff#\	ff
16F#\LL]	16ff#\LL]	.
(>32G#X\L	32gg#X\L	.
32A#X\	(>32aa#X\	.
32B\	32bb\	.
32c#\	32ccc#\	.
32d#X\	32ddd#X\	.
32e#X\JJJ	32eee#X\JJJ	.
=80	=80	=80
8f#\)	8fff#\)	.
8r	8r	.
!	!LO:TX:b:t=sec	!
8F# 8C# 8FF#\	8ff# 8cc# 8a#X 8f#\	.
8r;>	8r;>	.
4r	8.an\L|	mf
.	16dd\Jk|	.
=81	=81	=81
*^	*	*
8.r	4.D\	(>4ff#\	.
16A 16F#/	.	.	.
8A 8F#/	.	8dd\)	.
8r	8r	8r	.
8A 8F#/	8D\	8ff#\L|	.
8r	8r	16r	.
.	.	16gg\Jk|	.
!!LO:LB:g=original
=82	=82	=82	=82
8.r	4.D\	(>4aa\	.
16A 16F#/	.	.	.
8A 8F#/	.	8dd\)	.
8rA	8rGG	8r	.
8A 8F#/	8D\	8ee\L|	.
8rA	8rGG	16r	.
.	.	16dd\Jk|	.
=83	=83	=83	=83
8.r	4.AA\	(>4.cc#\	.
16A 16G 16E/	.	.	.
8A 8G 8E/	.	.	.
8rA	8rGG	8dd\L	.
8A 8G 8E/	8AA\	8ee\	.
8rA	8rGG	8cc#\J)	.
=84	=84	=84	=84
8.r	4.D\	(>4dd\	.
16A 16F#/	.	.	.
8A 8F#/	.	8a\)	.
8rA	8rGG	8r	.
8A 8F#/	8D\	8.aaL 8.a'\	.
8r	8r	.	.
.	.	16dddJk 16dd'\	.
=85	=85	=85	=85
*rep	*rep	*	*
8.r	4.D\	(>4fff# (>4ff#\	.
16A 16F#/	.	.	.
8A 8F#/	.	8ddd 8dd\))	.
8rA	8rGG	8r	.
8A 8F#/	8D\	8.fff#L 8.ff#\|	.
8r	8r	.	.
.	.	16gggJk 16gg\|	.
*Xrep	*Xrep	*	*
=86	=86	=86	=86
*rep	*rep	*	*
8.r	4.D\	(>4aaa 4aa\	.
16A 16F#/	.	.	.
8A 8F#/	.	8ddd 8dd\)	.
8rA	8rGG	8r	.
8A 8F#/	8D\	8ee\L	.
8r	8r	16r	.
.	.	16dd\Jk	.
!	!	!LO:TX:a:t=×	!
*Xrep	*Xrep	*	*
=87	=87	=87	=87
8.rA	4.AA\	(>4.cc#\	.
16A 16G 16E/	.	.	.
8A 8G 8E/	.	.	.
8rA	8rGG	8dd\L	.
8A 8G 8E/	8AA\	8ee\	.
8r	8r	8cc#\J)	.
=88	=88	=88	=88
8.r	4.D\	(>4dd\	.
16A 16F#/	.	.	.
8A 8F#/	.	8ddd\)	.
8rA	8rGG	8r	.
8A 8F#/	8D\	8d/L|>	.
8rA	8rGG	16r	.
.	.	16d/Jk|>	.
*v	*v	*	*
!!LO:LB:g=original
=89	=89	=89
4B 4G 4D\	(>4b 4g/	.
8B 8G 8D\	8g 8d/)	.
8r	16r	.
.	16ddKL 16b\	.
8B 8G 8D\	8cc# 8a\	.
8r	16r	.
.	16bJk 16g\	.
=90	=90	=90
4A 4F# 4D\	(>4a 4f#/	.
8A 8F# 8D\	8f# 8d/)	.
8r	16r	.
.	16aKL 16f#/	.
8A 8F# 8D\	8b 8g/	.
8r	16r	.
.	16aJk 16f#/	.
=91	=91	=91
4A 4G 4E 4AA\	(<4g 4e/	.
8A 8G 8E 8AA\	8e 8c#/)	.
8r	16r	.
.	16bKL 16g/	.
8A 8G 8E 8AA\	8a 8f#/	.
8r	16r	.
.	16gJk 16e/	.
=92	=92	=92
4A 4F# 4D\	(<4f# 4d/	.
8A 8F# 8D\	8a 8f#/)	.
8r	8r	.
8A 8F# 8D\	8ddL 8d/|>	.
8r	16r	.
.	16ddJk 16d/|>	.
=93	=93	=93
4B 4G 4D\	(>4bb 4gg 4b\	.
8B 8G 8D\	8gg 8b 8g\)	.
8r	16r	.
.	16dddKL 16bb 16dd\|>	.
8B 8G 8D\	8ccc# 8aa 8cc#\|>	.
8r	16r	.
.	16bbJk 16gg 16b\|>	.
=94	=94	=94
4A 4F# 4D\	(>4aa 4ff# 4a\	.
8A 8F# 8D\	8ff# 8dd 8f#\)	.
8r	16r	.
.	16aaKL 16ff# 16a\	.
8A 8F# 8D\	8bb 8gg 8b\	.
8r	16r	.
.	16aaJk 16ff# 16a\	.
!!LO:LB:g=original
=95	=95	=95
4A 4G 4E 4AA\	(>4gg 4ee 4g\	.
8A 8G 8E 8AA\	8ee 8cc# 8e\)	.
!	!LO:TX:b:i:t=cresc poco a poco:problem=dynamics with spaces	!LO:HP:b:i:t=cresc poco a poco:ext=[spaces]
8r	16r	<
.	16bbKL 16gg 16b\|>	.
8A 8G 8E 8AA\	8aa 8ff# 8a\|>	.
8r	16r	.
.	16ggJk 16ee 16g\|>	.
=96	=96	=96
*tremolo	*	*
8F#L 8D/	(>4ff# 4dd 4f#\	.
8AA/	.	.
8F# 8D/	8aa 8ff# 8a\)	.
8AA/	16r	.
.	16aaKL 16ff# 16a\|	.
8F# 8D/	8bb 8gg 8b\|	.
8AA/J	16r	.
.	16aaJk 16ff# 16a\|	.
=97	=97	=97
8GL 8E 8C#/	(>4gg 4ee 4g\	.
8AA/	.	.
8G 8E 8C#/	8ee 8cc# 8e\)	.
8AA/	16r	.
.	16bbKL 16gg 16b\|	.
8G 8E 8C#/	8aa 8ff# 8a\|	.
8AA/J	16r	.
.	16ggJk 16ee 16g\|	.
=98	=98	=98
8F#L 8D/	(>4ff# 4dd 4f#\	.
8AA/	.	[
8F# 8D/	8aa 8ff# 8a\)	.
8AA/	16r	.
.	16aaKL 16ff# 16a\|	.
8F# 8D/	8bb 8gg 8b\|	.
8AA/J	16r	.
.	16aaJk 16ff# 16a\|	.
!!LO:LB:g=original
=99	=99	=99
8GL 8E 8C#/	(>4gg 4ee 4g\	.
8AA/	.	.
8G 8E 8C#/	8ee 8cc# 8e\)	.
!	!LO:N:vis=8	!
8AA/	16r	.
.	16bbKL 16gg 16b\|	.
8G 8E 8C#/	8aa 8ff# 8a\|	.
8AA/J	16r	.
.	16ggJk 16ee 16g\|	.
=100	=100	=100
8F#L 8D/	(>4ff# 4dd 4f#\	.
8AA/	.	.
8F# 8D/	8aa 8ff# 8a\)	.
8AA/	16r	.
.	16aaKL 16ff# 16a\	.
8F# 8D/	8bb 8gg 8b\	.
8AA/J	16r	.
.	16aaJk 16ff# 16a\	.
*Xtremolo	*	*
=101	=101	=101
8GL 8E 8C#/	(>4gg 4ee 4g\	.
8AA/J	.	.
8GL 8E/	8ee 8cc# 8e\)	.
8AA/J	16r	f
.	16aaKL 16a\|	.
8GL 8E/	8.bb 8.b\|	.
8AA/J	.	.
.	16ccc#Jk 16cc#\|	.
=102	=102	=102
8F# 8D\	16dddLL 16dd\	.
.	16ee\	.
8r	16ff#\	.
.	16ee\JJ	.
8A 8F#\	16dd\LL	.
.	16ee\	.
8r	16ff#\	.
.	16gg\JJ	.
8F# 8D\	16aa\LL	.
.	16bb\	.
8r	16ccc#\	.
.	16ddd\JJ	.
=103	=103	=103
8E 8AA\	16ccc#\LL	.
.	16ddd\	.
8r	16eee\	.
.	16ddd\JJ	.
8A 8E 8AA\	16ccc#\LL	.
.	16bb\	.
8r	16aa\	.
.	16gg\JJ	.
8E 8AA\	16ff#\LL	.
.	16ee\	.
8r	16dd\	.
.	16cc#\JJ	.
!!LO:PB:g=original
=104	=104	=104
8F# 8D\	16dd\LL	.
.	16ee\	.
8r	16ff#\	.
.	16ee\JJ	.
8A 8F#\	16dd\LL	.
.	16ee\	.
8r	16ff#\	.
.	16gg\JJ	.
8F# 8D\	16aa\LL	.
.	16bb\	.
8r	16ccc#\	.
.	16ddd\JJ	.
=105	=105	=105
8E 8AA\	16ccc#\LL	.
.	16ddd\	.
8r	16eee\	.
.	16ddd\JJ	.
8A 8E 8AA\	16ccc#\LL	.
.	16bb\	.
8r	16aa\	.
.	16gg\JJ	.
8E 8AA\	16ff#\LL	.
.	16ee\	.
8r	16dd\	.
.	16cc#\JJ	.
=106	=106	=106
8F# 8D\	16dd\LL	.
.	16ee\	.
8r	16ff#\	.
.	16ee\JJ	.
8d 8F# 8D\	16dd\LL	.
.	16ee\	.
8r	16ff#\	.
.	16gg\JJ	.
8B 8F# 8D 8BB\	16aa\LL	.
.	16bb\	.
8r	16ccc#\	.
.	16ddd\JJ	.
=107	=107	=107
8G 8E 8BB 8GG\	16eee\LL	.
.	16fff#\	.
8r	16ggg\	.
.	16fff#\JJ	.
8G 8E 8BB 8GG\	16eee\LL	.
.	16ddd\	.
8r	16ccc#\	.
.	16bb\JJ	.
8G 8E 8C# 8AA\	16aa\LL	.
.	16gg\	.
8r	16ff#\	.
.	16ee\JJ	.
=108	=108	=108
8F# 8D\	16dd\LL	.
.	16ee\	.
8r	16ff#\	.
.	16ee\JJ	.
8d 8A 8F# 8D\	16dd\LL	.
.	16ee\	.
8r	16ff#\	.
.	16gg\JJ	.
8B 8F# 8D 8BB\	16aa\LL	.
.	16bb\	.
8r	16ccc#\	.
.	16ddd\JJ	.
!!LO:LB:g=original
=109	=109	=109
8G 8E 8BB 8GG\	16eee\LL	.
.	16fff#\	.
8r	16ggg\	.
.	16fff#\JJ	.
8G 8E 8BB 8GG\	16eee\LL	.
.	16ddd\	.
8r	16ccc#\	.
.	16bb\JJ	.
8G 8E 8C# 8AA\	16aa\LL	.
.	16gg\	.
8r	16ff#\	.
.	16ee\JJ	.
=110	=110	=110
4F# 4D\	8dd\L	.
.	16aaL 16a\	.
.	16aaJJ 16a\	.
8r	8aaL 8a\	.
8AL 8AA/	8ee 8cc# 8a'\	.
8A 8D/	8ff# 8dd 8a'\	.
8AJ 8AA/	8eeJ 8cc# 8a'\	.
=111	=111	=111
4A 4D\	8ff#L 8dd 8a\	.
.	16aaL 16a\	.
.	16aaJJ 16a\	.
8r	8aaL 8a\	.
8AL 8AA\	8ee 8cc# 8a\	.
8A 8D\	8ff# 8dd 8a\	.
8AJ 8AA\	8eeJ 8cc# 8a\	.
=112	=112	=112
8AL 8D\	8ff#L 8dd 8a\	.
8cn 8Cn\	8ff# 8dd 8a'\	.
8B 8BB\	8gg 8dd 8g'\	.
8c 8C\	8ff# 8dd 8a'\	<
8B 8BB\	8gg 8dd 8g'\	.
8B-XJ 8BB-X\	8gg#XJ 8ffn 8dd'\	.
=113	=113	=113
8AL 8AA\	8aaL 8ff#X 8dd'\	.
8B-X 8BB-X\	8gg#X 8ffn 8dd'\	.
8A 8AA\	8aa 8ff#X 8dd'\	.
8B- 8BB-\	8gg#X 8ffn 8dd'\	.
8A 8AA\	8aa 8ff#X 8dd'\	.
8G#XJ 8GG#X\	8bbJ 8ffn 8dd'\	[
!!LO:LB:g=original
=114	=114	=114
*tremolo	*	*
!	!	!LO:DY:t=ffo:rj
(>16F#LL 16D 16AA\	(>16dddLL 16ff# 16dd\	ff
16A\	16aa 16ff#\)	.
16F# 16D 16AA\	16aa 16ff#'\	.
16A\	16aaJJ 16ff#'\	.
16F# 16D 16AA\	(>16aaLL 16ff#\	.
16A\	16ff# 16dd\)	.
16F# 16D 16AA\	16ff# 16dd'\	.
16A\	16ff#JJ 16dd'\	.
16F# 16D 16AA\	(>16ff#LL 16dd\	.
16A\	16dd 16a\)	.
16F# 16D 16AA\	16dd 16a'\	.
16A\JJ)	16ddJJ 16a'\	.
=115	=115	=115
(>16F#LL 16D 16AA\	(>16fff#LL 16ddd\	.
16A\	16ddd 16aa\)	.
16F# 16D 16AA\	16ddd 16aa'\	.
16A\	16dddJJ 16aa'\	.
16F# 16D 16AA\	(>16dddLL 16aa\	.
16A\	16aa 16ff#\)	.
16F# 16D 16AA\	16aa 16ff#'\	.
16A\	16aaJJ 16ff#'\	.
16F# 16D 16AA\	(>16aaLL 16ff#\	.
16A\	16ff# 16dd\)	.
16F# 16D 16AA\	16ff# 16dd'\	.
16A\JJ)	16ff#JJ 16dd'\	.
=116	=116	=116
*	*tremolo	*
16ELL 16D 16AA\	16ee\LL	.
16A\	16ddd\	.
16E 16D 16AA\	16ee\	.
16A\	16ddd\	.
16E 16D 16AA\	16ee\	.
16A\	16ddd\	.
16E 16D 16AA\	16ee\	.
16A\	16ddd\	.
16E 16D 16AA\	16ee\	.
16A\	16ddd\	.
16E 16D 16AA\	16ee\	.
16A\JJ	16ddd\JJ	.
=117	=117	=117
16ELL 16C# 16AA\	16ee\LL	.
16A\	16ccc#\	.
16E 16C# 16AA\	16ee\	.
16A\	16ccc#\	.
16E 16C# 16AA\	16ee\	.
16A\	16ccc#\	.
16E 16C# 16AA\	16ee\	.
16A\	16ccc#\	.
16E 16C# 16AA\	16ee\	.
16A\	16ccc#\	.
16E 16C# 16AA\	16ee\	.
16A\JJ	16ccc#\JJ	.
=118||	=118||	=118||
*M2/4	*M2/4	*
!!!OMD: piu mosſo
4A 4F# 4D\	4ddd 4ff# 4dd\	.
4G#X 4GG#X/	4ffn 4dd 4b\	.
=119	=119	=119
4A 4AA/	4ee 4cc# 4a\	.
4F# 4FF#/	4aa 4dd 4a\	.
!!LO:LB:g=original
=120	=120	=120
4B 4BB\	4ff#X 4dd 4b\	.
4G#X 4GG#X/	4ffn 4dd 4b\	.
=121	=121	=121
4A 4AA/	4ffn 4ccn 4fn\	.
4Fn 4FFn/	4ff 4ee-X 4cc 4a\	.
=122	=122	=122
4B-X 4BB-X\	4ffn 4dd 4b-X\	.
4G#X 4GG#X/	4ff 4dd 4bn\	.
=123	=123	=123
4A 4F# 4D 4AA/	4ff#X 4dd 4a\	.
4A 4E 4C# 4AA/	4ee 4cc# 4a\	.
=124	=124	=124
4A 4F# 4D\	4dd 4a 4f#/	.
4r	4r	.
=125	=125	=125
4A 4E 4C# 4AA\	4ccc# 4aa 4gg 4ee\	.
4r	4r	.
=126	=126	=126
4A 4F# 4D\	4ddd 4aa 4ff# 4dd\	.
4r	4r	.
=127	=127	=127
4A 4E 4C# 4AA\	4aaa 4ccc# 4aa\	.
4r	4r	.
=128	=128	=128
4A 4F# 4D\	4ddd 4aa 4ff# 4dd\	.
4r	4r	.
!!LO:PB:g=original
==129	==129	==129
*k[f#]	*k[f#]	*
*M2/4	*M2/4	*
(<8qF#/	.	.
2G 2D 2GG^>\)	2r	fp
=130	=130	=130
(<8qF#/	.	.
2G 2D 2GG^>\)	2r	.
=131	=131	=131
*	*^	*
2G 2D 2GG\	8dd/	2b\	pp
.	4bb/	.	.
.	8gg/	.	.
=132	=132	=132	=132
2G 2D 2GG\	8dd/	2b\	.
.	4bb/	.	.
.	8gg/	.	.
*	*v	*v	*
=133	=133	=133
.	(<8qdd/	.
2G 2D 2GG^>\	(>[>4ddd\)	.
.	16ddd\LL]	.
.	16ccc\	.
.	16bb\	.
.	16aa\JJ)	.
=134	=134	=134
2G 2D 2GG\	2gg\	.
=135	=135	=135
(<8qF#/	.	.
*	*^	*
2G 2D 2GG\)	8dd/	2b\	.
.	4bb/	.	.
.	8gg/	.	.
=136	=136	=136	=136
(<8qF#/	.	.	.
2G 2D 2GG\)	8dd/	2b\	.
.	4bb/	.	.
.	8gg/	.	.
=137	=137	=137	=137
2G 2D 2GG^>\	(>[>4dd/	[<2b\	.
.	16dd/LL]	.	.
.	16ee/	.	.
.	16ff#/	.	.
.	16gg/JJ)	.	.
!!LO:LB:g=original
=138	=138	=138	=138
!	!	!LO:TX:b:t=P:problem=w źródle ligatura kończy się od góry	!
2G 2D 2GG\	4dd/	4b\]	.
.	(<4g/	4ryy	.
*	*v	*v	*
=139	=139	=139
*^	*	*
4A 4D/	4GG\	8f#/L)	.
.	.	8g'/	.
[>4A [>4D/	[>4GG\	8a'/	.
.	.	8b'/J	.
=140	=140	=140	=140
4A] 4D/]	4GG\]	8cc'\L	.
.	.	8cc#X'\	.
4A 4D/	4GG\	(>8ee^<\	.
.	.	16dd\Jk)	.
.	.	16r	.
=141	=141	=141	=141
*	*	*^	*
2G 2D/	2GG\	(>[>4dd/	[<2b\	.
.	.	16dd/LL]	.	.
.	.	16ee/	.	.
.	.	16ff#/	.	.
.	.	16gg/JJ	.	.
=142	=142	=142	=142	=142
2G 2D/	2GG\	4dd/)	4b\]	.
.	.	(>4gg (>4g\	4ryy	.
*	*	*v	*v	*
=143	=143	=143	=143
4A 4D/	4GG\	8ff#L 8f#\))	.
.	.	16ggL 16g'\	.
.	.	16ggJJ 16g'\	.
[>4A [>4D/	[>4GG\	8aaL 8a'\	.
.	.	8bbJ 8b'\	.
=144	=144	=144	=144
4A] 4D/]	4GG\]	8cccL 8cc'\	.
.	.	8ccc#XJ 8cc#X'\	.
4A 4D/	4GG\	(>8eeeL 8ee^<\	.
.	.	16dddJk 16dd\)	.
.	.	16r	.
=145	=145	=145	=145
2G 2D/	2GG\	4.gg 4.g\	.
!	!	!LO:TUP:a:problem=klamra łukowa	!
.	.	24eeLL 24cc^<\	.
.	.	24dd 24b\	.
.	.	24cc#XJJ 24a#X\	.
*v	*v	*	*
!!LO:LB:g=original
=146	=146	=146
!	!LO:N:vis=8.	!LO:DY:rj
2G\ 2D\ 2GG^>\	8ddL 8b\	f
.	(>32dd\LL	.
.	32ee\	.
.	32ff#\	.
.	32gg\JJJ	.
.	8dd\L)	.
!	!LO:TUP:a:problem=klamra łukowa	!
.	24eeL 24cc\	.
.	24dd 24b^<\	.
.	24cc#XJJ 24a#X\	.
=147	=147	=147
2G\ 2D\ 2GG^>\	8ddL 8b\|	.
.	(>32dd\LL	.
.	32ee\	.
.	32ff#\	.
.	32gg\JJJ	.
.	8dd\L)	.
!	!LO:TUP:a:problem=klamra łukowa	!
.	24eeL 24cc^<\	.
.	24dd 24b\	.
.	24cc#XJJ 24a#X\	.
=148	=148	=148
8qF#/	.	.
*^	*	*
2G^/	2D 2GG\	8dd 8b\	.
.	.	(<8qdd/	p
.	.	[>8ddd\)	.
.	.	(>16ddd\LL]	.
.	.	16cccn\	.
.	.	16bb\	.
.	.	16aan\JJ)	.
=149	=149	=149	=149
2G 2D/	2GG\	4.gg\	.
!	!	!LO:TUP:a:problem=klamra łukowa	!
.	.	24eeLL 24cc^<\	.
.	.	24dd 24b\	.
.	.	24cc#XJJ 24a#X\	.
*v	*v	*	*
=150	=150	=150
!	!	!LO:DY:rj
2G 2D 2GG^<\	8ddL 8b\	f
.	(>32dd\LL	.
.	32ee\	.
.	32ff#\	.
.	32gg\JJJ)	.
.	8dd\L	.
!	!LO:TUP:a:problem=klamra łukowa	!
.	24eeL 24cc^<\	.
.	24dd 24b\	.
.	24cc#XJJ 24a#X\	.
=151	=151	=151
2G 2D 2GG^<\	8ddL 8b\	.
.	(>32dd\LL	.
.	32ee\	.
.	32ff#\	.
.	32gg\JJJ)	.
.	8dd\L	.
!	!LO:TUP:a:problem=klamra łukowa	!
.	24eeL 24cc^<\	.
.	24dd 24b\	.
.	24cc#XJJ 24a#X\	.
!!LO:LB:g=original
=152	=152	=152
(<8qF#/	.	.
*^	*	*
2G/)	2D 2GG\	8dd 8b\	p
.	.	(>[>8ddd\	.
.	.	16ddd\LL]	.
.	.	16ccc\	.
.	.	16bb\	.
.	.	16aa\JJ)	.
*v	*v	*	*
=153	=153	=153
2G\ 2D\ 2GG\	4gg\	.
.	(<4g/	mf
=154	=154	=154
*^	*	*
4A 4D/	4GG\	8f#/L)	.
.	.	8g'/	.
[>4A [>4D/	[<4GG\	8a'/	.
.	.	8b'/J	.
=155	=155	=155	=155
4A] 4D/]	4GG\]	8cc'\L	.
.	.	8cc#X'\	.
4A 4D/	4GG\	(>8ee^<\	.
.	.	16dd\Jk)	.
.	.	16r	.
=156	=156	=156	=156
*	*	*^	*
2G/	2D 2GG\	(>[>4dd/	2b\	.
.	.	16dd/LL]	.	.
.	.	16ee/	.	.
.	.	16ff#/	.	.
.	.	16gg/JJ	.	.
=157	=157	=157	=157	=157
2G/	2D 2GG\	4dd/)	4b\	.
!	!	!	!	!LO:DY:rj
.	.	(>4gg 4g\	4ryy	f
*	*	*v	*v	*
=158	=158	=158	=158
4A 4D/	4GG\	8ff#L 8f#'\)	.
.	.	8gg 8g'\	.
[>4A [>4D/	[<4GG\	8aa 8a'\	.
.	.	8bbJ 8b'\	.
=159	=159	=159	=159
4A] 4D/]	4GG\]	8cccL 8cc'\	.
.	.	8ccc#X 8cc#X'\	.
4A 4D/	4GG\	(>8eee 8ee^<\	.
.	.	16dddJk 16dd\)	.
.	.	16r	.
=160	=160	=160	=160
8G/	2D 2GG\	4.gg\	p
(>8qF#/	.	.	.
4.G/)	.	.	.
.	.	(>16dd\LL	.
.	.	16bb\JJ)	.
!!LO:LB:g=original
=161	=161	=161	=161
8r	2D 2GG\	4.gg\	.
(<8qF#/	.	.	.
4.G/)	.	.	.
.	.	(>16dd\LL	.
.	.	16bb\JJ)	.
=162	=162	=162	=162
8r	2D 2GG\	4.gg\	.
(>8qF#/	.	.	.
4.G/)	.	.	.
.	.	(>16ddd\LL	.
.	.	16bb\JJ)	.
=163	=163	=163	=163
*rep	*rep	*	*
8r	2D 2GG\	4.ggg\	.
(>8qF#/	.	.	.
4.G/)	.	.	.
.	.	(>16ddd\LL	.
.	.	16bb\JJ)	.
*Xrep	*Xrep	*	*
=164	=164	=164	=164
*rep	*rep	*	*
8r	2D 2GG\	4.gg\	.
(>8qF#/	.	.	.
4.G/)	.	.	.
.	.	(>16dd\LL	.
.	.	16bb\JJ)	.
*Xrep	*Xrep	*	*
=165	=165	=165	=165
*rep	*rep	*	*
8r	2D 2GG\	4.gg\	.
(>8qF#/	.	.	.
4.G/)	.	.	.
.	.	(>16b\LL	.
.	.	16dd\JJ)	.
*Xrep	*Xrep	*	*
=166	=166	=166	=166
2G/	2D 2GG\	[<4g/	.
.	.	16g\LL]	.
.	.	(>32a\L	.
.	.	32b\	.
.	.	32cc\	.
.	.	32dd\	.
.	.	32ee\	.
.	.	32ff#\JJJ	.
=167	=167	=167	=167
2G/	2D 2GG\	8gg\)	.
.	.	[>8gg\L|	.
.	.	16gg\L]	.
.	.	(>32aa\L	.
.	.	32bb\	.
.	.	32ccc\	.
.	.	32ddd\	.
.	.	32eee\	.
.	.	32fff#\JJJ)	.
=168	=168	=168	=168
2G/	2D 2GG\	4ggg\	.
.	.	(>32ccc#X\LLL	.
.	.	32ddd\	.
.	.	32eee\	.
.	.	32ddd\JJJ	.
.	.	32aa#X\LLL	.
.	.	32bb\	.
.	.	32cccn\	.
.	.	32bb\JJJ)	.
*v	*v	*	*
!!LO:PB:g=original
=169	=169	=169
2G\ 2D\ 2GG\	4gg\	>
.	(>32cc#X\LLL	.
.	32dd\	.
.	32ee\	.
.	32dd\JJJ	.
.	32a#X/LLL	.
.	32b/	.
!	!LO:SIC:v:s=ccn	!
.	32cc#/	.
.	32b/JJJ)	.
=170	=170	=170
*^	*	*
*	*^	*	*
2G/	8D\	2GG\	4.g/	.
.	(<8qC#X/	.	.	.
.	4.D\)	.	.	.
!	!	!	!LO:TX:a:t=P:problem=mixed beam	!
.	.	.	(>16d/LL	pp
.	.	.	16dd\JJ)	.
=171	=171	=171	=171	=171
2G/	8D\	2GG\	4.g/	.
.	(<8qE/	.	.	.
.	4.D\)	.	.	.
!	!	!	!LO:TX:a:t=P:problem=mixed beam	!
.	.	.	(>16d/LL	.
.	.	.	16dd\JJ)	.
*v	*v	*v	*	*
=172	=172	=172
4G 4D 4GG\	4g/	.
4G 4D 4GG\	4g 4B/	.
=173	=173	=173
2G 2D 2GG;>\	2g 2B;>/	.
=174||	=174||	=174||
*k[fnb-]	*k[fnb-]	*
*M2/4	*M2/4	*
!LO:TX:a:t=P:problem=w źródle kasownik na początku taktu na wysokości F	!LO:TX:a:t=P:problem=w źródle kasownik na początku taktu na wysokości ff	!
4.G 4.C\	4.e 4.B-X/	f
16r	16r	.
16F 16FF/	16f 16A/	.
=175	=175	=175
4.F 4.FF/	4.f 4.A/	.
16r	16r	.
16D 16DD/	16f 16Bn 16G/	.
=176	=176	=176
!	!LO:SIC:v:s=Bn	!
4.D 4.DD/	4.f 4.B- 4.G/	.
16r	16r	.
16C 16CC/	16e 16c 16G/	.
!!LO:LB:g=original
=177	=177	=177
4.C 4.CC;>/	4.e 4.c 4.G;>/	.
8r	16ff'\LL	p
.	16gg'\JJ	.
=178	=178	=178
16cLL 16A 16F'\	16aa'\LL	.
16r	16ff'\	.
16cJJ 16A 16F'\	16ee'\	.
16r	16ff'\JJ	.
(>8dL 8Bn 8G#X 8F^<\	16dd'\LL	.
.	16ff'\	.
16cJk 16A 16F\)	16cc'\	.
16r	16cc'\JJ	.
=179	=179	=179
16cLL 16A 16F'\	16aa'\LL	.
16r	16ff'\	.
16cJJ 16A 16F'\	16ee'\	.
16r	16ff'\JJ	.
(>8dL 8Bn 8G#X 8F^<\	16dd'\LL	.
.	16ff'\	.
16cJk 16A 16F\)	16cc'\	.
16r	16ff'\JJ	.
=180	=180	=180
8C\L	16ee'\LL	.
.	16gg'\	.
8cJ 8B- 8G\	16ee'\	.
.	16dd'\JJ	.
8C\L	16cc'\LL	.
.	16bb-'\	.
8cJ 8B- 8G\	16aa'\	.
.	16gg'\JJ	.
=181	=181	=181
8F\L	16ff'\LL	.
.	16aa'\	.
8cJ 8A\	16ff'\	.
.	16ee'\JJ	.
8F\L	16ff'\LL	.
.	16ccc'\	.
8cJ 8A\	16aa'\	.
.	16ff'\JJ	.
=182	=182	=182
*^	*	*
8D\L	4ryy	16bbn'\LL	.
.	.	16ddd'\	.
8BnJ 8G 8F\	.	16bb'\	.
.	.	16aa'\JJ	.
4GG/	8GG\L	16gg'\LL	.
.	.	16fff'\	.
.	8FJ 8D\	16eee'\	.
.	.	16ddd'\JJ	<
*v	*v	*	*
=183	=183	=183
!LO:TX:t=P:problem=mixed beam	!	!
(>\16ELL 16C\	(>16ccc\LL	.
16G\	16eee\)	.
16GG/	16gg'\	.
16G\JJ	16gg'\JJ	.
16FLL 16BBn\	(>16gg\LL	.
16G\	16ff\)	.
16GG\	16ee'\	.
16G\JJ)	16dd'\JJ	.
=184	=184	=184
(>16ELL 16C\	(>16cc\LL	.
16G\	16ee\)	.
16GG\	16gg 16g'\	.
16G\JJ	16ggJJ 16g'\	.
16FLL 16BBn\	(>16ggLL 16g\	.
16G\	16ff\)	.
16GG\	16ee'\	.
16G\JJ)	16dd'\JJ	.
!!LO:LB:g=original
=185	=185	=185
16E 16C\	16cc\	.
16r	16r	.
!	!LO:TX:b:t=sec	!LO:DY:rj
8c 8G 8E 8C\	8ccc 8ee 8cc\	f
8r;>	8r;>	.
!	!	!LO:DY:rj
8r	16gg'\LL	p
.	16aa'\JJ	.
=186	=186	=186
16dLL 16G'\	16bb-'\LL	.
16r	16gg'\	.
16dJJ 16B-'\	16dd'\	.
16r	16gg'\JJ	.
(>8e-XL 8c^>\	(>16ff#X\LL	.
.	16aa\)	.
16dJk 16B-\)	16gg'\	.
16r	16gg'\JJ	.
=187	=187	=187
16dLL 16G'\	16bb-'\LL	.
16r	16gg'\	.
16dJJ 16B-'\	16dd'\	.
16r	16gg'\JJ	.
(>8e-XL 8c^>\	(>16ff#X\LL	.
.	16aa\)	.
16dJk 16B-\)	16gg'\	.
16r	16gg'\JJ	.
=188	=188	=188
*^	*	*
4C/	8C\L	16ccc\LL	.
.	.	16bb-\	.
.	8cJ 8B- 8G\	16aa\	.
.	.	16gg\JJ	.
4F/	8F\L	16ff\LL	.
.	.	16aa\	.
.	8cJ 8A\	16ff\	.
.	.	16ccc\JJ	.
=189	=189	=189	=189
4C/	8C\L	16ccc\LL	.
.	.	16bb-\	.
.	8cJ 8B- 8G\	16aa\	.
.	.	16gg\JJ	.
4C/	8C\L	16ff\LL	.
.	.	16ee\	.
.	8cJ 8B- 8G\	16dd\	.
.	.	16ee\JJ	.
=190	=190	=190	=190
!	!	!	!LO:DY:rj
4F/	8F\L	(>16ff\LL	f
.	.	16aa\)	.
.	8cJ 8A\	16fff 16ff'\	.
.	.	16fffJJ 16ff'\	.
4D/	8D\L	(>16ff\LL	.
.	.	16aa\)	.
.	8dJ 8A 8F\	16fff 16ff'\	.
.	.	16fffJJ 16ff'\	.
=191	=191	=191	=191
4BB-/	8BB-\L	(>16eee\LL	.
.	.	16ddd\)	.
.	8B-J 8G 8D\	16bb-'\	.
.	.	16gg'\JJ	.
4C/	8C\L	(>16ff\LL	.
.	.	16aa\)	.
.	8cJ 8B- 8G\	16gg'\	.
.	.	16ee'\JJ	.
!!LO:LB:g=original
=192	=192	=192	=192
4F/	8F\L	(>16ff\LL	.
.	.	16aa\)	.
.	8cJ 8A\	16fff 16ff'\	.
.	.	16fffJJ 16ff'\	.
4D/	8D\L	(>16ff\LL	.
.	.	16aa\)	.
.	8dJ 8A 8F\	16fff 16ff'\	.
.	.	16fffJJ 16ff'\	.
=193	=193	=193	=193
4BB-/	8BB-\L	(>16eee\LL	.
.	.	16ddd\)	.
.	8B-J 8G 8D\	16bb-'\	.
.	.	16gg'\JJ	.
8AL 8F 8C\	4ryy	(>16ff\LL	.
.	.	16aa\)	.
8B-J 8G 8C\	.	16gg'\	.
.	.	16ee'\JJ	.
*v	*v	*	*
=194	=194	=194
8A 8F\	(>16ff\LL	.
.	16aa\)	.
8r	16ccc 16cc'\	.
.	16cccJJ 16cc'\	.
8r	16cccLL 16cc'\	.
.	16ccc 16cc'\	.
8c 8B- 8G 8C\	(>16ddd 16dd\	.
.	16eeeJJ 16ee\)	.
=195	=195	=195
8c 8A 8F\	16fffLL 16ff\	.
.	16ccc 16cc\	.
8r	16ccc 16cc'\	.
.	16cccJJ 16cc'\	.
8r	16cccLL 16cc'\	.
.	16ccc 16cc'\	.
8c 8B- 8G 8C\	16ddd 16dd\	.
.	16eeeJJ 16ee\	.
=196	=196	=196
8c 8A 8F\	8fff 8ff\	.
8r	8r	.
8F 8FF/	8aa 8ff 8cc\	.
16r	16r	.
16F 16FF/	16f 16c 16A/	.
=	=	=
4.F 4.FF;>/	4.f 4.A;>/	.
!!LO:PB:g=original
==197	==197	==197
*k[b-e-]	*k[b-e-]	*
*M2/4	*M2/4	*
!	!LO:TX:a:i:t=Allegretto.	!LO:DY:rj
8r	8ff [<8f^\|	p
=198	=198	=198
*	*^	*
8BB-\L	(>4dd/	4f\_<	.
8d 8B- 8F\	.	.	.
8d 8B- 8F\	16b-/)	16f\]	.
.	16r	16ryy	.
8dJ 8B- 8F\	8ff [<8f/|>	8ryy	.
=199	=199	=199	=199
8AA\L	(>4ee-/	4f\_<	.
8e- 8c 8F\	.	.	.
8e- 8c 8F\	16cc/)	16f\]	.
.	16r	16ryy	.
8e-J 8c 8F\	8ff 8f/	8ryy	.
=200	=200	=200	=200
8BB-\L	8ddL 8f/	4f\	.
8dJ 8B- 8F\	8b-'>/	.	.
8BB-\L	8a'>/	4ryy	.
8dJ 8B- 8F\	8b-'>/J	.	.
*	*v	*v	*
=201	=201	=201
8FF\L	(>16dd\LL	.
.	16cc\	.
8e- 8c 8F\	16ee-\)	.
.	32r	.
.	32g\JJk|	.
8e- 8c 8F\	(<16b-/LL	.
.	16a/	.
8e-J 8c 8F\	16g/)	.
.	16f/JJ	.
=202	=202	=202
*	*^	*
!LO:TX:a:t=P:problem=mixed beam	!	!	!
8BB-/L	(>4dd/	[>4f\	.
8d\ 8B-\ 8F\	.	.	.
8d\ 8B-\ 8F\	16b-/)	16f\]	.
.	16r	16ryy	.
8d\J 8B-\ 8F\	8ff [<8f/|>	8ryy	.
=203	=203	=203	=203
!LO:TX:a:t=P:problem=mixed beam	!	!	!
8AA/L	(>4ee-/	4f\_<	.
8e-\ 8c\ 8F\	.	.	.
8e-\ 8c\ 8F\	16cc/)	16f\]	.
.	16r	16ryy	.
8e-\J 8c\ 8F\	8ff 8f\|	8ryy	.
*	*v	*v	*
!!LO:LB:g=original
=204	=204	=204
!LO:TX:a:t=P:problem=mixed beam	!	!
8BB-/L	(<8dd/L	.
8d\J 8B-\ 8F\	8b-/J)	.
.	(<16qqdd/	.
!LO:TX:a:t=P:problem=mixed beam	!	!
8FF/L	16cc/LL)	.
.	16bn/	.
8e-\J 8A\ 8F\	16cc/	.
.	16dd/JJ	.
=	=	=
*	*^	*
8dL 8B-\	8b-/L	[>4f\	.
8F\J	(>16.ff/L	.	.
.	32dd/JJk	.	.
16d 16B-\	16b-/)	16f\]	.
16r;>	16r;>	16ryy	.
*	*v	*v	*
=205||	=205||	=205||
!	!	!LO:DY:rj
8r	8ff [<8f/|	f
=206	=206	=206
*	*^	*
!LO:TX:t=P:problem=mixed beam	!	!	!
16BB-/LL	(>4dd/	4f\_<	.
16d\ 16B-\ 16F\	.	.	.
16d\ 16B-\ 16F\	.	.	.
16d\JJ 16B-\ 16F\	.	.	.
8d 8B- 8F\	16b-/)	16f\]	.
.	16r	16ryy	.
8r	8ff [<8f/	8ryy	.
=207	=207	=207	=207
16AA\LL	(>4ee-/	4f\_>	.
16e- 16c 16F\	.	.	.
16e- 16c 16F\	.	.	.
16e-JJ 16c 16F\	.	.	.
8e- 8c 8F\	16cc/)	16f\]	.
.	16r	16ryy	.
8r	8ff 8f/	8ryy	.
*	*v	*v	*
=208	=208	=208
16BB-\LL	8ddL 8f'>/	.
16d 16B- 16F\	.	.
16d 16B- 16F\	8b-'>/	.
16dJJ 16B- 16F\	.	.
16D\LL	8a'>/	.
16d 16B- 16F\	.	.
16d 16B- 16F\	8b-'>/J	.
16dJJ 16B- 16F\	.	.
=209	=209	=209
!LO:TX:t=P:problem=mixed beam	!	!
16FF/LL	(>16dd\LL	.
16e-\ 16c\ 16F\	16cc\	.
16e-\ 16c\ 16F\	16ee-\)	.
16e-\JJ 16c\ 16F\	32r	.
.	32g\JJk|	.
*rep	*	*
!LO:TX:t=P:problem=mixed beam	!	!
16FF/LL	(<16b-/LL	.
16e-\ 16c\ 16F\	16a/	.
16e-\ 16c\ 16F\	16g/	.
16e-\JJ 16c\ 16F\	16f/JJ)	.
*Xrep	*	*
=210	=210	=210
*	*^	*
16BB-\LL	(>4dd/	[>4f\	.
16d 16B- 16F\	.	.	.
16d 16B- 16F\	.	.	.
16dJJ 16B- 16F\	.	.	.
8d 8B- 8F\	16b-/)	16f\]	.
.	16r	16ryy	.
8r	8bb- 8b-\	8ryy	.
*	*v	*v	*
!!LO:LB:g=original
=211	=211	=211
*^	*	*
4E-/	16E-\LL	(>4bb- 4b-\	.
.	16e- 16B- 16G\	.	.
.	16e- 16B- 16G\	.	.
.	16e-JJ 16B- 16G\	.	.
8e- 8B- 8G 8E-\	4ryy	16gg\)	.
.	.	16r	.
8r	.	[>8ee-\	.
=212	=212	=212	=212
4F/	16F\LL	16ee-\LL]	.
.	16d 16B-\	16dd\	.
.	16d 16B-\	16gg\	.
.	16dJJ 16B-\	[>16ff\JJ	.
4F/	16F\LL	16ff\LL]	.
.	16e- 16c 16A\	16ee-\	.
.	16e- 16c 16A\	16dd\	.
.	16e-JJ 16c 16A\	16cc\JJ	.
*v	*v	*	*
=	=	=
16dLL 16B-\	8b-\L	.
16F\	.	.
16d 16B-\	8dd\	.
16F\JJ	.	.
8d 8B-\	8b-\J	.
=213!|:	=213!|:	=213!|:
*>B	*>B	*
8r	16f'/LL	p
.	16g'/JJ	.
=214	=214	=214
!LO:TX:t=P:problem=mixed beam	!	!
16FF/LL	16aLL 16f'/	.
16r	(<32aL 32f/	.
.	32b-JJJ 32g/)	.
16e-\JJ 16c\ 16F\	16ccLL 16a'/	.
16r	16ddJJ 16b-'/	.
!LO:TX:t=P:problem=mixed beam	!	!
.	(<8qff 8qdd/	.
16FF/LL	16ee-LL 16cc\)	.
16r	16dd 16bn'\	.
16c\JJ 16A\ 16F\	16ee- 16cc'\	.
16r	16ccJJ 16a'\	.
=215	=215	=215
16BB-/	16ddLL 16b-\|	.
16r	(>32ddL 32b-\	.
.	32ffJJJ 32dd\)	.
16d 16B- 16F\	16bb-LL 16dd'\	.
16r	16aaJJ 16ff'\	.
16BB-/	16ggLL 16ee-'\	.
16r	16ff 16dd'\	.
16d 16B- 16F\	16ee- 16cc'\	.
16r	16ddJJ 16b-'\	.
=216	=216	=216
!LO:TX:t=P:problem=mixed beam	!	!
16FF/LL	16ccLL 16a 16d/	.
16r	(<32ccL 32a/	.
.	32b-JJJ 32g/)	.
16e-\JJ 16c\ 16F\	16aLL 16f'/	.
16r	16b-JJ 16g'/	.
16FF/	16ccLL 16a'\	.
16r	16dd 16b-'\	.
16c 16A 16F\	16ee- 16cc'\	.
16r	16ccJJ 16a'\	.
=217	=217	=217
16BB-/	16ddLL 16b-\|	.
16r	(>32ddL 32b-\	.
.	32ee-JJJ 32cc\)	.
16d 16B- 16F\	16ffLL 16dd'\	.
16ryy	16ddJJ 16b-'\	.
8c 8A 8F\	16cc 16a'\	.
.	16r	.
8r	8ff 8f\|	.
!!LO:LB:g=original
=218	=218	=218
*	*^	*
!	!	!	!LO:DY:rj
16BB-\LL	(>4dd/	[<4f\	f
16d 16B- 16F\	.	.	.
16d 16B- 16F\	.	.	.
16dJJ 16B- 16F\	.	.	.
8d 8B- 8F\	16b-/)	16f\]	.
.	16r	16ryy	.
8r	8ff [<8f/	8ryy	.
=219	=219	=219	=219
16AA\LL	(>4ee-/	4f\_>	.
16e- 16c 16F\	.	.	.
16e- 16c 16F\	.	.	.
16e-JJ 16c 16F\	.	.	.
8e- 8c 8F\	16cc/)	16f\]	.
.	16r	16ryy	.
8r	8ff 8f/	8ryy	.
*	*v	*v	*
=220	=220	=220
16BB-\LL	8ddL 8f/	.
16d 16B- 16F\	.	.
16d 16B- 16F\	8b-'/	.
16dJJ 16B- 16F\	.	.
16D\LL	8a'/	.
16d 16B- 16F\	.	.
16d 16B- 16F\	8b-'/J	.
16dJJ 16B- 16F\	.	.
=221	=221	=221
16FF\LL	(>16dd\LL	.
16e- 16c 16F\	16cc\	.
16e- 16c 16F\	16ee-\)	.
16e-JJ 16c 16F\	32r	.
.	32g\JJk|	.
*rep	*	*
16FF\LL	16b-/LL	.
16e- 16c 16F\	16a/	.
16e- 16c 16F\	16g/	.
16e-JJ 16c 16F\	16f/JJ	.
*Xrep	*	*
=222	=222	=222
*	*^	*
16BB-\LL	(>4dd/	[<4f\	.
16d 16B- 16F\	.	.	.
16d 16B- 16F\	.	.	.
16dJJ 16B- 16F\	.	.	.
8d 8B- 8F\	16b-/)	16f\]	.
.	16r	16ryy	.
8r	8bb- 8b-\|	8ryy	.
*	*v	*v	*
=223	=223	=223
*^	*	*
4E-/	16E-\LL	(>4bb- 4b-\|	.
.	16e- 16B- 16G\	.	.
.	16e- 16B- 16G\	.	.
.	16e-JJ 16B- 16G\	.	.
8e- 8B- 8G\	4ryy	16gg\)	.
.	.	16r	.
8r	.	[>8ee-\	.
=224	=224	=224	=224
4F/	16F\LL	16ee-\LL]	.
.	16d 16B-\	16dd\	.
.	16d 16B-\	(>16gg\	.
.	16dJJ 16B-\	16ff\JJ	.
4F/	16F\LL	16ff\LL	.
.	16e- 16c 16A\	16ee-\	.
.	16e- 16c 16A\	16dd\	.
.	16e-JJ 16c 16A\	16cc\JJ)	.
*v	*v	*	*
!!LO:LB:g=original
=	=	=
16dLL 16B-\	8b-\L	.
16F\	.	.
16d 16B-\	8dd\	.
16F\JJ	.	.
8d 8B-\	8b-\J	.
=225:||:	=225:||:	=225:||:
*>C	*>C	*
8r	8b-'\	mf
=226	=226	=226
16.EE-/	[>4ee- [>4g\	.
32E-\KLL|	.	.
16.G\|	.	.
32B-\JJk|	.	.
4E-\	16.ee-]LL 16.g\]	.
.	32gK 32e-'\	.
.	16.b- 16.g\|	.
.	32ee-JJk 32b-\|	.
=227	=227	=227
16.EE-/	[>4gg [>4ee-\	.
32E-\KLL	.	.
16.G\	.	.
32B-\JJk	.	.
4E-\	16.gg]LL 16.ee-\]	.
.	32b-K 32g\|	.
.	16.ee- 16.b-\|	.
.	32ggJJk 32ee-\|	.
=228	=228	=228
*^	*	*
16.EE-/	4ryy	4bb- 4gg\	.
32E-\KLL	.	.	.
16.G\	.	.	.
32B-\JJk	.	.	.
!	!	!LO:SIC:v:s=aa-	!
4E-/	8E-\L	(>16aa\LL	.
.	.	16gg\	.
.	8B-J 8G\	16ff\	.
.	.	16ee-\JJ)	.
=229	=229	=229	=229
.	.	(<8qgg/	.
4BB-/	16.BB-\LL	16.ff\LL)	.
!LO:SIC:v:s=A-	!	!	!
.	32AK 32F 32D\	32een\K	.
!LO:SIC:v:s=A-	!	!	!
.	16.A 16.F 16.D\	16.ff\	.
!LO:SIC:v:s=A-	!	!	!
.	32AJJk 32F 32D\	32gg\JJk	.
!LO:SIC:v:s=A-	!	!	!
8A 8F 8D 8BB-\	4ryy	8ff\	.
8r	.	8b-\	.
*v	*v	*	*
=230	=230	=230
16.EE-/	[>4ee- [>4g\	.
32E-\KLL	.	.
16.G\	.	.
32B-\JJk	.	.
4E-\	16.ee-]LL 16.g\]	.
.	32gK 32e-\|	.
.	16.b- 16.g\|	.
.	32ee-JJk 32b-\|	.
=231	=231	=231
16.EE-/	[>4gg [>4ee-\	.
32E-\KLL	.	.
16.G\	.	.
32B-\JJk	.	.
4E-\	16.gg]LL 16.ee-\]	.
.	32b-K 32g\|	.
.	16.ee- 16.b-\|	.
.	32ggJJk 32ee-\|	.
!!LO:PB:g=original
=232	=232	=232
!LO:TX:a:i:t=Ima volta	!	!
*>C1	*>C1	*
*^	*	*
4D/	8D\L	8bb-L 8gg\	p
.	8B-J 8G\	(>16aa\L	.
.	.	16gg\JJ)	.
4D/	8D\L	16.ff#X\LL	.
.	.	32gg\K	.
.	8cJ 8A\	16.aa\	.
.	.	32ff#\JJk	.
*v	*v	*	*
=233	=233	=233
8B-L 8G\	16.gg'\LL	.
.	32bb-'\K	.
8dJ 8D\	16.aa'\	.
.	32bb-'\JJk	.
8B- 8G\	8gg\	.
=234:|!	=234:|!	=234:|!
!LO:TX:a:t=2.	!	!
*>C2	*>C2	*
*^	*	*
4AA-X/	16.AA-\LL	16.ff\LL	.
.	32FK 32C\	32gg\K	.
.	16.F 16.C\	16.aa-X\	.
!	!	!LO:TX:a:t=2	!
.	32FJJk 32C\	32ff\JJk	.
4BB-/	16.BB-\LL	16.dd\LL	.
.	32A-XK 32F\	32ee-\K	.
.	16.A- 16.F\	16.ff\	.
.	32A-JJk 32F\	32dd\JJk	.
=	=	=	=
4.G/	16.E-\LL	16.ee-\LL	.
.	32BB-\K	32gg\K	.
.	16.G 16.E-\	16.ff#X\	.
.	32BB-\JJk	32gg\JJk	.
.	8G 8E-\	8ee-\	.
*v	*v	*	*
=235||	=235||	=235||
*>D	*>D	*
8r	[>8gg [>8ee-^<\	p
=236	=236	=236
8BB-\L	16.gg]LL 16.ee-\]	.
.	32ee-K 32cc\|	.
8B-J 8A-X 8F\	16.dd 16.b-\|	.
.	32ccJJk 32a-X\|	.
8BB-\L	16.b-LL 16.g/|	.
.	32a-XK 32f/|	.
8B-J 8A- 8F\	16.g 16.e-/|	.
.	32fJJk 32d/|	.
=237	=237	=237
*^	*	*
4E-/	8E-\L	16.gLL 16.e-/|	.
.	.	32a-XK 32f/|	.
.	8B-J 8G\	16.b- 16.g/|	.
.	.	32ccJJk 32a-X/|	.
4C^>/	8C\L	16.b-LL 16.g/|	.
.	.	32dd-XK 32b-/|	.
.	8cJ 8B- 8G 8En\	16.cc 16.a-/|	.
.	.	32b-JJk 32g/|	.
!!LO:LB:g=original
=238	=238	=238	=238
.	.	(<8qb- 8qg/	.
4F/	8F\L	16.a-XLL 16.f/)	.
.	.	32gK 32en/	.
.	8cJ 8A-X\	16.a- 16.f/	.
.	.	32gJJk 32e/	.
8F\	4ryy	16a- 16f/	.
.	.	16r	.
8r	.	[>8ff 8dd^<\	.
!	!	!LO:TX:a:t=×	!
=239	=239	=239	=239
4BB-/	8BB-\L	16.ff]LL 16.dd\	.
.	.	32ee-XK 32cc\	.
.	8B-J 8A-X 8F\	16.dd 16.b-\	.
.	.	32ccJJk 32a-X\	.
4BB-/	8BB-\L	16.b-LL 16.g/	.
.	.	32a-K 32f/	.
.	8B-J 8A- 8F\	16.g 16.e-/	.
.	.	32fJJk 32d/	.
*v	*v	*	*
=240	=240	=240
16B-LL 16G 16E-\	16.gLL 16.e-/	.
16r	.	.
.	32b-K 32g/	.
16r	16.ee- 16.g/	.
16B-JJ 16G 16E-\	.	.
.	32b-JJk 32g/	.
16B-LL 16G 16E-\	16.gLL 16.e-/	.
16r	.	.
.	32b-K 32g/	.
16r	16.ee- 16.g/	.
16B-JJ 16G 16E-\	.	.
.	32b-JJk 32g/	.
=241	=241	=241
!LO:SIC:v:s=A-	!	!
!LO:SIC:v:s=AA-	!LO:SIC:v:s=a-	!
16ALL 16AA\	16.aLL 16.f/	.
16r	.	.
!	!LO:SIC:v:s=a-	!
.	32ccK 32a/	.
!	!LO:SIC:v:s=a-	!
16r	16.ff 16.a/	.
!LO:SIC:v:s=A-	!	!
!LO:SIC:v:s=AA-	!	!
16AJJ 16AA\	.	.
!	!LO:SIC:v:s=a-	!
.	32aJJk 32f/	.
16G 16E- 16BB-\	16.gLL 16.e-/	.
16r	.	.
.	32ee-/K	.
!LO:SIC:v:s=A-	!	!
16A 16F 16BB-\	16.f 16.d/	.
16r	.	.
.	32dd/JJk	.
=242	=242	=242
!	!	!LO:DY:rj
16GLL 16E-\	16.gLL 16.e-/	f
16r	.	.
.	32b-K 32g/	.
16r	16.ee- 16.g/	.
16B-JJ 16G 16E-\	.	.
.	32b-JJk 32g/	.
*	*rep	*
16B-LL 16G 16E-\	16.gLL 16.e-/	.
16r	.	.
.	32b-K 32g/	.
16r	16.ee- 16.g/	.
16B-JJ 16G 16E-\	.	.
.	32b-JJk 32g/	.
*	*Xrep	*
=243	=243	=243
!LO:SIC:v:s=A-	!	!
!LO:SIC:v:s=AA-	!LO:SIC:v:s=a-	!
16ALL 16AA\	16.aLL 16.f/	.
16r	.	.
!	!LO:SIC:v:s=a-	!
.	32ccK 32a/	.
!	!LO:SIC:v:s=a-	!
16r	16.ff 16.a/	.
!LO:SIC:v:s=A-	!	!
!LO:SIC:v:s=AA-	!	!
16AJJ 16AA\	.	.
!	!LO:SIC:v:s=a-	!
.	32aJJk 32f/	.
16G 16E- 16BB-\	16.gLL 16.e-/	.
16r	.	.
.	32ee-/K	.
!LO:SIC:v:s=A-	!	!
16A 16F 16BB-\	16.f 16.d/	.
16r	.	.
.	32dd/JJk	.
!!LO:LB:g=original
=244	=244	=244
!	!LO:TUP:a:problem=klamra łukowa	!
16GLL 16E-\	24ee-\LL	.
.	24gg\	.
16BB-\	.	.
.	24bb-\JJ	.
!	!LO:TUP:a	!
16G 16E-\	24bb-LL 24b-'\	.
.	24bb- 24b-'\	.
16BB-\JJ	.	.
.	24bb-JJ 24b-'\	.
!	!LO:TUP:a:problem=klamra łukowa	!
16A-XLL 16F 16D\	24ff\LL	.
.	24aa-X\	.
16BB-\	.	.
.	24bb-\JJ	.
!	!LO:TUP:a	!
16A- 16F 16D\	24bb-LL 24b-'\	.
.	24bb- 24b-'\	.
16BB-\JJ	.	.
.	24bb-JJ 24b-'\	.
=245	=245	=245
*rep	*	*
!	!LO:TUP:a:problem=klamra łukowa	!
16GLL 16E-\	24gg\LL	.
.	24aan\	.
16BB-\	.	.
.	24bb-\JJ	.
!	!LO:TUP:a	!
16G 16E-\	24bb-LL 24b-'\	.
.	24bb- 24b-'\	.
16BB-\JJ	.	.
.	24bb-JJ 24b-'\	.
!	!LO:TUP:a:problem=klamra łukowa	!
16A-XLL 16F 16D\	24ff\LL	.
.	24aa-X\	.
16BB-\	.	.
.	24bb-\JJ	.
!	!LO:TUP:a	!
16A- 16F 16D\	24bb-LL 24b-'\	.
.	24bb- 24b-'\	.
16BB-\JJ	.	.
.	24bb-JJ 24b-'\	.
*Xrep	*	*
=246	=246	=246
16GLL 16E-\	16ee-\LL	.
16BB-\	16ff 16dd 16b-\	.
16G 16E-\	16gg 16ee- 16b-\	.
16BB-\JJ	16ffJJ 16dd 16b-\	.
*rep	*	*
16GLL 16E-\	16ggLL 16ee- 16b-\	.
16BB-\	16ff 16dd 16b-\	.
16G 16E-\	16gg 16ee- 16b-\	.
16BB-\JJ	16ffJJ 16dd 16b-\	.
*Xrep	*	*
=247	=247	=247
16GLL 16E-\	16ggLL 16ee- 16b-\	.
16B- 16BB-\	16ff 16dd 16b-\	.
16G 16E-\	16gg 16ee- 16b-\	.
16B-JJ 16BB-\	16ffJJ 16dd 16b-\	.
*rep	*	*
16GLL 16E-\	16ggLL 16ee- 16b-\	.
16B- 16BB-\	16ff 16dd 16b-\	.
16G 16E-\	16gg 16ee- 16b-\	.
16B-JJ 16BB-\	16bb-JJ 16dd 16b-\	.
*Xrep	*	*
=248	=248	=248
8G 8E-\	8ee- 8b- 8g\	.
8r	8r	.
!LO:TX:t=P:problem=mixed beam	!	!LO:DY:t=ffo:rj
(>32EE-X/LLL	32ggLLL 32cc#X\	ff
32E-\	32g\	.
32EE-/	32gg 32cc#\	.
32E-\	(>32g\	.
32EE-/	32gg 32cc#\	.
32E-\	32g\	.
32EE-/	32gg 32cc#\	.
32E-\JJJ)	32g\JJJ)	.
!!LO:LB:g=original
=249	=249	=249
!LO:N:vis=16	!LO:N:vis=16	!
8D 8DD/	8ff#X 8dd 8a\	.
!LO:N:vis=32	!LO:N:vis=32	!
16r	16r	.
!LO:N:vis=32	!LO:N:vis=32	!
16D 16AA 16DD/	16ddd 16ff# 16dd\	.
8.D 8.AA 8.DD;>/	8.ddd 8.ff# 8.dd;>\	.
=250||	=250||	=250||
!!!OMD: allo. moderato
*>E	*>E	*
*k[bnenf#]	*k[bnenf#]	*
*M4/4	*M4/4	*
*met(c)	*met(c)	*
!	!	!LO:DY:rj
16r	(>16dd\|	p
=251	=251	=251
4GG/	4b\)	.
4d 4B 4G\	8.r	.
.	(>16dd\|	.
4BB/	4g/)	.
4d 4B 4G\	8.r	.
.	(<16b/	.
=252	=252	=252
8D\L	8a/L)	.
!	!	!LO:DY:rj
(>16A\L	(<16a/L	f
16B\JJ	16b/JJ	.
16A\LL	16a/LL	.
16G\	16g/	.
16F#\	16f#/	.
16E\JJ	16e/JJ	.
4D\)	4d/)	.
4r	8.r	.
!	!	!LO:DY:rj
.	(>16dd\|	p
=253	=253	=253
4GG/	4b\)	.
4d 4B 4G\	8.r	.
.	(>16g/	.
4BB/	4dd\)	.
4d 4B 4G\	8.r	.
.	(>16b 16g/	.
=254	=254	=254
16D\LL|	16aLL 16f#/)	.
!	!	!LO:DY:rj
(>16D\	(<16d/	f
16E\	16e/	.
16F#\JJ	16f#/JJ	.
16G\LL	16g/LL	.
16A\	16a/	.
16B\	16b/	.
16c#X\JJ	16cc#X/JJ	.
4d\)	4dd\)	.
4r	8.r	.
!	!	!LO:DY:rj
.	(>16dd\|	p
!!LO:LB:g=original
=255	=255	=255
4GG/	4b\)	.
4d 4B 4G\	8.r	.
.	(>16dd\|	.
4BB/	4g/)	.
4d 4B 4G\	8.r	.
.	(<16b 16g/|	.
=256	=256	=256
8D\L|	8aL 8f#/)	.
!	!	!LO:DY:rj
(>16A\L	(<16a/L	f
16B\JJ	16b/JJ	.
16A\LL	16a/LL	.
16G\	16g/	.
16F#\	16f#/	.
16E\JJ	16e/JJ	.
4D\)	4d/)	.
4r	8.r	.
!	!	!LO:DY:rj
.	(>16dd\|	p
=257	=257	=257
4GG/	4b\)	.
4e 4B 4G\	8.r	.
.	(>16ee\	.
8f# 8d 8A\	8dd 8a\)	.
8r	8r	.
8g 8e 8A\	8cc#X 8a/|	.
8r	8r	.
=	=	=
16f# 16d\	16dd 16a/|	.
!	!	!LO:DY:rj
(>16d\LL	(<16dd/LL	f
16c#X\	16cc#X/	.
16B\JJ	16b/JJ	.
16A\LL	16a/LL	.
16G\	16g/	.
16F#\	16f#/	.
16E\JJ	16e/JJ	.
4D\)	4d/)	.
!LO:TX:a:i:t=V&colon; S&colon;	!	!
8.r	8.r	.
!!LO:PB:g=original
=258:|!|:	=258:|!|:	=258:|!|:
*>F	*>F	*
!	!	!LO:DY:rj
16r	16d/|	p
=259	=259	=259
4c 4A 4D\	(<4cc 4a/	.
4r	8a 8f#/)	.
.	16r	.
.	16ee#X 16g#X\|	.
4c 4A 4D\	(>4ff# 4a\	.
4r	8aa 8cc\)	.
.	16r	.
.	16dd\|	.
=260	=260	=260
4B 4G 4D\	(>4bb 4dd\	.
4r	8gg 8b\)	.
.	16r	.
.	16ff# 16a#X\|	.
4B 4G 4D\	(>4gg 4b\	.
4r	8bb 8dd\)	.
.	16r	.
.	16d/|	.
=261	=261	=261
4A 4F#\	4cc 4a 4d/	.
4D\	8.r	.
.	16a 16f# 16d/	.
4B 4G\	4b 4g 4d/	.
4D\	8.r	f
.	16b 16g 16d/	.
=262	=262	=262
8AL 8F# 8D\	8aL 8f# 8d/	.
16r	16r	.
16BJk 16G 16D\	16bJk 16g 16d/	.
8AL 8F# 8D\	8aL 8f# 8d/	.
16r	16r	.
16BJk 16G 16D\	16bJk 16g 16d/	.
4A 4F# 4D\	4a 4f# 4d/	.
4r	8.r	p
.	(>16dd\|	.
!!LO:LB:g=original
=263	=263	=263
8GG/	4b\)	.
8r	.	.
8d 8B 8G\	8.r	.
8r	.	.
.	(>16dd\	.
8BB/	4g/)	.
8r	.	.
8d 8B 8G\	8.r	.
8r	.	.
.	(>16b\|	.
=264	=264	=264
*^	*	*
8C/	2ryy	8e/)	.
8r	.	8r	.
!	!	!	!LO:DY:rj
8c 8G 8E\	.	(>2gg (>2ee (>2g^<\	f
8r	.	.	.
4r	2C\	.	.
4c 4G 4E/	.	8ff#) 8dd) 8f#\)L	.
.	.	16r	.
.	.	16ee 16cc 16e\J|	.
*v	*v	*	*
=265	=265	=265
4D\	4dd 4b 4d/	.
!	!	!LO:DY:rj
4B 4G\	8.r	p
.	(>16b 16g 16d/	.
4D\	8cc 8a 8d/)	.
.	8r	.
4c 4A 4D\	8a 8f# 8d/|	.
.	8r	.
=266	=266	=266
!LO:TX:a:i:t=Ima	!	!
*>F1	*>F1	*
!	!	!LO:DY:rjj
16BLL 16G\	16g/LL	f
!	!LO:TX:a:t=P:problem=łuk zaczyna się na dole - idzie pod 16g, 16a i 16b, a dalej nad nutami	!
(>16G\	(>16g/	.
16F#\	16a/	.
16E\JJ	16b/JJ	.
16D/LL	16cc\LL	.
16C/	16dd\	.
16BB/	16ee\	.
16AA/JJ	16ff#\JJ	.
4GG/)	4gg\)	.
8.r	8.r	.
.	.	.
=267:|!	=267:|!	=267:|!
!LO:TX:a:i:t=2da	!	!
*>F2	*>F2	*
!	!	!LO:DY:rj
16BLL 16G\	16g/LL|	f
!	!LO:TX:a:t=P:problem=łuk zaczyna się na dole - idzie pod 16g, 16a i 16b, a dalej nad nutami	!
(>16G\	(>16g/	.
16F#\	16a/	.
16E\JJ	16b/JJ	.
!	!LO:TX:a:t=2da	!
16D\LL	16cc\LL	.
16C\	16dd\	.
16BB\	16ee\	.
16AA\JJ	16ff#\JJ	.
8GG/)	8gg\)	.
8r;>	8r;>	.
!!LO:LB:g=original
=268||	=268||	=268||
*>G	*>G	*
!!!OMD: allegro.
*k[fn]	*k[fn]	*
*	*	*
*M3/4	*M3/4	*
!LO:TX:t=P:problem=kasownik w źródle na wysokości F	!LO:TX:t=P:problem=kasownik w źródle na wysokości ff	!
!	!	!LO:DY:rj
4r	(<8g/L	p
.	8f/J)	.
=269	=269	=269
*^	*	*
4r	2.C\	(<8e/L	.
.	.	16g/Jk)	.
.	.	16r	.
4G 4E/	.	(<8g/L	.
.	.	16cc/Jk)	.
.	.	16r	.
4G 4E/	.	(>8ee\L	.
.	.	16gg\Jk)	.
.	.	16r	.
=270	=270	=270	=270
*rep	*rep	*rep	*
4r	2.C\	(<8e/L	.
.	.	16g/Jk)	.
.	.	16r	.
4G 4E/	.	(<8g/L	.
.	.	16cc/Jk)	.
.	.	16r	.
4G 4E/	.	(<8ee\L	.
.	.	16gg\Jk)	.
.	.	16r	.
*Xrep	*Xrep	*Xrep	*
=271	=271	=271	=271
4r	2.GG\	(>8aa\L	.
.	.	8gg\)	.
4G 4F 4D/	.	8dd'\ 8b\	.
.	.	(>8aa\	.
4G 4F 4D/	.	8gg\)	.
.	.	8b'\J	.
=272	=272	=272	=272
4r	2.C\	8cc\L|	.
.	.	(>8dd#X\	.
4G 4E/	.	8ee\)	.
.	.	(>8b\	.
4G 4E/	.	8cc\)	.
.	.	8g'\J	.
=273	=273	=273	=273
*rep	*rep	*	*
4r	2.C\	(<8e/L	.
.	.	16g/Jk)	.
.	.	16r	.
4G 4E/	.	(<8g/L	.
.	.	16cc/Jk)	.
.	.	16r	.
4G 4E/	.	(>8ee\L	.
.	.	16gg\Jk)	.
.	.	16r	.
*Xrep	*Xrep	*	*
=274	=274	=274	=274
*rep	*rep	*rep	*
4r	2.C\	(<8e/L	.
.	.	16g/Jk)	.
.	.	16r	.
4G 4E/	.	(<8g/L	.
.	.	16cc/Jk)	.
.	.	16r	.
4G 4E/	.	(>8ee\L	.
.	.	16gg\Jk)	.
.	.	16r	.
*Xrep	*Xrep	*Xrep	*
=275	=275	=275	=275
4r	2.GG\	(>8aa\L	.
.	.	8gg\)	.
4G 4F 4D/	.	8dd\|	.
.	.	(>8aa\	.
4G 4F 4D/	.	8gg\)	.
.	.	8b\J|	.
*v	*v	*	*
!!LO:LB:g=original
=	=	=
4G 4E 4C\	4cc\	.
4G 4E 4C\	4ccc 4ee 4cc\	.
=276:|!|:	=276:|!|:	=276:|!|:
*>H	*>H	*
!	!	!LO:DY:rj
4r	(>8b\L	f
.	8cc\J)	.
=277	=277	=277
*^	*	*
4r	2.F#X\	(>8ee\L	.
.	.	8dd\)	.
4d 4c 4A/	.	8a'\	.
.	.	(>8ee\	.
4d 4c 4A/	.	8dd\)	.
.	.	8a'\J	.
=278	=278	=278	=278
4r	2.G\	(>8ee\L	.
.	.	8dd\)	.
4d 4B/	.	8b'\	.
.	.	(>8ee\	.
4d 4B/	.	8dd\)	.
.	.	8b'\J	.
=279	=279	=279	=279
4r	2.D\	(>8bb\L	.
.	.	8aa\)	.
4c 4A 4F#X/	.	8dd'\	.
.	.	(>8bb\	.
4c 4A 4F#/	.	8aa\)	.
.	.	8dd'\J	.
=280	=280	=280	=280
4r	2.D\	8gg\L|	.
.	.	(>8aa#X\	.
4B 4G/	.	8bb\)	.
.	.	(>8ff#X\	.
4B 4G/	.	8gg\)	.
.	.	8dd'\J	.
=281	=281	=281	=281
4r	2.F#X\	(>8ee\L	.
.	.	8dd\)	.
4d 4c 4A/	.	8a'\	.
.	.	(>8ee\	.
4d 4c 4A/	.	8dd\)	.
.	.	8a'\J	.
=282	=282	=282	=282
4r	2.G\	(>8ee\L	.
.	.	8dd\)	.
4d 4B/	.	8b'\	.
.	.	(>8ee\	.
4d 4B/	.	8dd\)	.
.	.	8b'\J	.
=283	=283	=283	=283
4r	2.D\	(>8bb\L	.
.	.	8aa\)	.
4c 4A 4F#X/	.	8dd'\	.
.	.	(>8ddd\	.
4c 4A 4F#/	.	8ccc\)	.
.	.	8aa'\J	.
*v	*v	*	*
=	=	=
4B 4G\	2gg\	.
4GG/	.	.
=284:|!|:	=284:|!|:	=284:|!|:
*>I	*>I	*
!	!	!LO:DY:rj
4r	(<8g/L	p
.	8fn/J)	.
!!LO:LB:g=original
=285	=285	=285
*^	*	*
4r	2.C\	(<8e/L	.
.	.	16g/Jk)	.
.	.	16r	.
4G 4E/	.	(<8g/L	.
.	.	16cc/Jk)	.
.	.	16r	.
4G 4E/	.	(>8ee\L	.
.	.	16gg\Jk)	.
.	.	16r	.
=286	=286	=286	=286
*rep	*rep	*rep	*
4r	2.C\	(<8e/L	.
.	.	16g/Jk)	.
.	.	16r	.
4G 4E/	.	(<8g/L	.
.	.	16cc/Jk)	.
.	.	16r	.
4G 4E/	.	(>8ee\L	.
.	.	16gg\Jk)	.
.	.	16r	.
*Xrep	*Xrep	*Xrep	*
=287	=287	=287	=287
4r	2.GG\	(>8aa\L	.
.	.	8gg\)	.
4G 4F 4D/	.	8dd'\	.
.	.	(>8aa\	.
4G 4F 4D/	.	8gg\)	.
.	.	8b'\J	.
=288	=288	=288	=288
4r	2.C\	8cc'\L	.
.	.	(>8dd#X\	.
4G 4E/	.	8ee\)	.
.	.	(>8b\	.
4G 4E/	.	8cc\)	.
.	.	8g'\J	.
=289	=289	=289	=289
*rep	*rep	*	*
4r	2.C\	(<8e/L	.
.	.	16g/Jk)	.
.	.	16r	.
4G 4E/	.	(<8g/L	.
.	.	16cc/Jk)	.
.	.	16r	.
4G 4E/	.	(>8ee\L	.
.	.	16gg\Jk)	.
.	.	16r	.
*Xrep	*Xrep	*	*
=290	=290	=290	=290
*rep	*rep	*rep	*
4r	2.C\	(<8e/L	.
.	.	16g/Jk)	.
.	.	16r	.
4G 4E/	.	(<8g/L	.
.	.	16cc/Jk)	.
.	.	16r	.
4G 4E/	.	(>8ee\L	.
.	.	16gg\Jk)	.
.	.	16r	.
*Xrep	*Xrep	*Xrep	*
=291	=291	=291	=291
4r	2.GG\	(>8aa\L	.
.	.	8gg\)	.
4G 4F 4D/	.	8dd'\	.
.	.	(>8aa\	.
4G 4F 4D/	.	8gg\)	.
.	.	8b'\J	.
*v	*v	*	*
=	=	=
4G 4E 4C\	4cc\	.
!	!	!LO:DY:rj
4G 4E 4C\	4ccc 4ee 4cc^<\	f
!!LO:PB:g=original
=292:|!|:	=292:|!|:	=292:|!|:
*>J	*>J	*
!	!	!LO:DY:rj
4r	4c/	p
=293	=293	=293
*^	*	*
4r	2.F\	4a/|	.
!	!	!	!LO:HP:a
4c 4A/	.	(<8a/L	<
.	.	8b-X/J	.
4c 4A/	.	4a/)	.
=294	=294	=294	=294
4r	2.F\	4cc\|	.
4e-X 4A/	.	(>8cc\L	.
.	.	8dd\J	.
4e- 4A/	.	4cc\)	.
=295	=295	=295	=295
4r	2.F\	4b-X\|	.
4d 4B-X/	.	(>8b-\L	.
!	!	!	!LO:HP:a
.	.	8cc\J	[ >
4d 4B-/	.	4b-\)	.
=296	=296	=296	=296
4r	2.F\	4g/|	.
4c 4B-X 4G/	.	(<8g/L	.
.	.	8f/J	.
4c 4B- 4G/	.	4e/)	]]
=297	=297	=297	=297
4r	2.F\	4f'/	.
4c 4A/	.	(<8f/L	.
.	.	8g/J	.
4c 4A/	.	4f/)	.
=298	=298	=298	=298
4r	2.D\	4a'/	.
4d 4A 4F/	.	(<8a/L	.
.	.	8b-X/J	.
4d 4A 4F/	.	4a/)	.
=299	=299	=299	=299
4r	2BB-X\	4g'/	.
4B-X 4G 4D/	.	(<8g/L	.
.	.	8f/J	.
4B- 4G/	4C\	4e/)	.
*v	*v	*	*
=	=	=
2A 2F\	(>4f^</	.
.	8ff\)	.
.	8r	.
=300:|!|:	=300:|!|:	=300:|!|:
*>K	*>K	*
!	!	!LO:DY:rj
4r	8e'/L	f
.	8f'/J	.
!!LO:LB:g=original
=301	=301	=301
4C\	(<8f#X/L	.
.	8g/J)	.
8c 8G 8E 8C\	8cc 8g 8e^</	.
8r	8r	.
4r	8e'/L	.
.	8fn'/J	.
=302	=302	=302
4C\	(<8f#X/L	.
.	8g/J)	.
8c 8G 8E 8C\	8cc 8g 8e^</	.
8r	8r	.
4r	8dd'\L	.
.	8cc'\J	.
=303	=303	=303
4G\	(>8b\L	.
.	8aa\J)	.
8f 8d 8G^>\	8gg 8dd 8b\|	.
8r	8r	.
4r	8dd'\L	.
.	8cc'\J	.
=304	=304	=304
4G\	(>8b\L	.
.	8aa\J)	.
8f 8d 8G^>\	8gg 8dd 8b'\	.
8r	8r	.
4r	8e'/L	.
.	8f'/J	.
=305	=305	=305
4C\	(<8f#X/L	.
.	8g/J)	.
8c 8G 8E 8C\	8cc 8g 8e^</	.
8r	8r	.
4r	8e'/L	.
.	8fn'/J	.
=306	=306	=306
4C\	(<8f#X/L	.
.	8g/J)	.
8c 8G 8E 8C\	8cc 8g 8e^</	.
8r	8r	.
4r	8dd'\L	.
.	8cc'\J	.
!!LO:LB:g=original
=307	=307	=307
4G 4GG\	8b'\L	.
.	(>8aa\	.
4f 4d 4G\	8gg\)	.
.	(>8ddd\	.
4f 4d 4G\	8bb\)	.
.	8gg'\J	.
=308	=308	=308
!LO:TX:a:t=1ma	!	!
*>K1	*K1	*
4e 4c\	4ccc\	.
4C/	4r	.
=309:|!	=309:|!	=309:|!
!LO:TX:a:t=2	!	!
*>K2	*>K2	*
!!!OMD: Moderato
!	!LO:TX:t=P:problem=mixed beam	!
!LO:TX:t=P:problem=mixed beam	!	!
!	!LO:TX:a:t=P:problem=druga volta obejmuje tylko wartość pierwszej ćwierćnuty w tym takcie	!
8e/L 8c'>/	8ccc\L	.
!	!LO:TX:a:t=2	!
(32C/LL	(<32c/LL	.
32BB/	32B/	.
32C/	32c/	.
32BB/JJJ	32B/JJJ	.
*>L	*>L	*
8C/)	8c/)	.
8r	8r	.
4C 4CC/	4cc 4g 4e'/	.
=310	=310	=310
8BB-XL 8BBB-X/	8ddL 8b-X 8f'/	.
(<32BB-/LL	(<32B-X/LL	.
32AA/	32A/	.
32BB-/	32B-/	.
32AA/JJJ	32A/JJJ)	.
8BB-/)	8B-/	.
8r	8r	.
4BB- 4BBB-/	4dd 4b- 4f'>/	.
=311	=311	=311
8E-XL 8EE-X/	8ee-XL 8b-X 8g'>/	.
(<32E-/LL	(<32e-X/LL	.
32D/	32d/	.
32E-/	32e-/	.
32D/JJJ	32d/JJJ	.
8E-/)	8e-/)	.
8r	8r	.
4E- 4EE-/	4ee- 4b- 4g'>/	.
=312	=312	=312
8AA-XL 8AAA-X/	8ffL 8cc 8a-X'\	.
32AA-/LL	(>32a-\LL	.
32GG/	32g\	.
32AA-/	32a-\	.
32GG/JJJ	32g\JJJ	.
8AA-/	8a-\)	.
8r	8r	.
!	!LO:N:vis=8	!
4AA- 4AAA-/	4ff 4cc 4a-\	.
!!LO:LB:g=original
=313	=313	=313
8BB-XL 8BBB-X/	8ee-XL 8b-X 8g'\	.
(<32BB-/LL	(>32b-\LL	.
32AA/	32an\	.
32BB-/	32b-\	.
32AA/JJJ	32a\JJJ	.
8BB-/)	8b-\)	.
8r	8r	.
4BB- 4BBB-/	4ee- 4b- 4g'\	.
=314	=314	=314
8BB-XL 8BBB-X/	8ddL 8b-X 8f'\	.
32BB-/LL	(>32b-\LL	.
32AA/	32a\	.
32BB-/	32b-\	.
32AA/JJJ	32a\JJJ	.
8BB-/	8b-\)	.
8r	8r	.
!	!	!LO:DY:t=ffo:rj
4BB- 4BBB-;>/	4bb-X 4dd 4b-X;>\	ff
=315||	=315||	=315||
!!!OMD: adagio.
*k[b-e-a-]	*k[b-e-a-]	*
*M3/4	*M3/4	*
.	8qa-/|	.
2.A- 2.F 2.BB-\	12aa-'\L	.
.	(>12een\	.
.	12ff\J	.
.	12cc#X\L	.
.	12dd\	.
.	12an\J)|	.
.	4b-\|	.
=316	=316	=316
!	!LO:TUP:a	!
2.G 2.E- 2.BB-\	12bb-\L|	.
.	(12ff#X\	.
.	12gg\J	.
!	!LO:TUP:a	!
.	12dd\L	.
.	12ee-\)	.
.	12an\J|	.
.	4b-\	.
=317	=317	=317
*^	*	*
*	*	*Xtuplet	*
2.An/	2.G-X 2.E- 2.BB-\	12g-X'\L	.
.	.	12an'\	<
.	.	12cc'\J	.
.	.	12ee-'\L	.
.	.	12gg-X'\	.
.	.	12aanJ 12a\	.
.	.	12cccL 12cc\	.
.	.	12eee- 12ee-\	[
.	.	12aaJ 12a\	.
*v	*v	*	*
!!LO:LB:g=original
=318	=318	=318
!	!	!LO:DY:rj
*Xtuplet	*	*
4B- 4F 4D 4BB-\	12bb-\L	f
.	12fff 12ff'\	.
.	12dddJ 12dd'\	.
12r	12bb-L 12b-'\	.
12f\L	12ff'\	.
12d\J	12dd'\J	.
4B-\	4b-'\	.
=319	=319	=319
*	*tuplet	*
!	!LO:TUP:a	!
2.A-X 2.F 2.BB-\	12aa-\L|	p
.	(>12een\	.
.	12ff\J	.
!	!LO:TUP:a	!
.	12cc#X\L	.
.	12dd\	.
.	12an\J)|	.
.	4b-\|	.
=320	=320	=320
!	!LO:TUP:a	!
2.G 2.E- 2.BB-\	12bb-\L|	.
.	(>12ff#X\	.
.	12gg\J	.
!	!LO:TUP:a	!
.	12dd\L	.
.	12ee-\	.
.	12an\J)	.
.	4b-\	.
=321	=321	=321
*^	*	*
!	!	!LO:TUP:a	!
2.An/	2.G-X 2.E- 2.BB-\	12g-X'\L	.
.	.	12an'\	<
.	.	12cc'\J	.
!	!	!LO:TUP:a	!
.	.	12ee-'\L	.
.	.	12gg-X'\	.
.	.	12aan'\J	.
!	!	!LO:TUP:a	!
.	.	12ccc'\L	.
.	.	12eee-'\	[
.	.	12aa'\J	.
*v	*v	*	*
=322	=322	=322
.	8qaan/	f
4B- 4F 4D 4BB-\	2.bb-TT\	.
8.r	.	.
16d 16B- 16A- 16F\|	.	.
4d 4B- 4A- 4F\|	.	.
=323	=323	=323
4B- 4BB-\	2.bb-TTT\	.
8.r	.	.
16f 16d 16B-\|	.	.
4f 4d 4B-\|	.	.
!LO:TX:a:i:t=V&colon; S&colon;	!	!
!!LO:PB:g=original
=324	=324	=324
*	*^	*
8B- 8BB-\	(>4bb-T\	4ryy	.
16r	.	.	.
*clefG2	*	*	*
16a- 16f 16d 16B-/	.	.	.
.	16qqaan/LL	.	.
.	16qqbb-/JJ	.	.
8a- 8f 8d 8B-;>/	8b-;>\)	4ryy	.
8r;	8ryy	.	.
!LO:CL:ed	!	!	!
*clefF4	*	*	*
!	!	!	!LO:HP:a
.	16qqaa-X\LL	.	<
.	16qqgg\	.	.
.	(>16qqbb-\	.	.
.	16qqaa-\	.	.
.	16qqccc\	.	.
.	16qqbb-\	.	.
.	16qqaa-\	.	.
.	16qqgg\	.	.
.	16qqff\	.	.
.	16qqeen\	.	.
.	16qqgg\	.	.
.	16qqff\	.	.
.	16qqaa-\	.	.
.	16qqgg\	.	.
.	16qqff\	.	.
.	16qqee-X\	.	.
.	16qqdd\	.	.
.	16qqcc\	.	.
.	16qqee-\	.	.
.	16qqdd\	.	.
.	16qqff\	.	.
.	16qqee-\)	.	.
.	16qqdd\	.	.
.	16qqcc\JJ	.	.
.	4qqb-\	.	.
.	(>8qqan\L	.	.
.	8qqb-\	.	.
.	8qqbn\	.	.
.	8qqcc\	.	.
.	8qqcc#X\J	.	.
.	4qqdd\;>)	.	.
4e- 4B- 4G 4E-\	(>8.b-X/L	4g\	.
.	16gg/Jk)	.	[[
=325	=325	=325	=325
*^	*	*	*
!	!	!	!	!LO:HP:a
8.cL 8.A-/	N[<4E-\	8.ggL 8.cc/	8.a-\L	>
16dJk 16B- 16A-/	.	16ffJk 16dd 16b-/	16a-\Jk	]
4e- 4B- 4G 4E-\N]	4ryy	4ee- 4b-/	4g\	.
!	!	!	!	!LO:HP:a
4e- 4B- 4G 4E-\	4ryy	8.b-/L	4g\	<
.	.	16gg/Jk	.	[[
=326	=326	=326	=326	=326
*	*^	*	*	*
!	!	!	!	!	!LO:HP:a
8.cL 8.A-/	4ryy	2E-\	8.gg/L	8.ccL 8.a-\	>
16dJk 16B- 16A-/	.	.	16ffJk 16dd/	16b-Jk 16a-\	.
8e- 8B-/	4G\	.	8ee- 8b-/	8g\	]
16r	.	.	16r	16ryy	.
16gKL 16G\	.	.	16ee-/KL|	16b-\KL	.
8.f 8.F\	4ryy	4ryy	8.ff 8.dd/|	8.b-\	.
16e-Jk 16E-\	.	.	16ggJk 16ee-/|	16b-\Jk	.
*v	*v	*v	*	*	*
*	*v	*v	*
!!LO:LB:g=original
=327	=327	=327
(>8.e-\L	4.aa- 4.ff\	.
32d\LL	.	.
32c\JJJ	.	.
4d\)	.	.
.	8bb- 8b-\	.
8.e-L 8.E-\	8.ggL 8.ee-\	.
16gJk 16G\	(>16bb-Jk 16b-\	.
=328	=328	=328
*clefG2	*	*
*	*^	*
8b- 8B-/	8ffL 8dd\)	4ryy	.
16r	16r	.	ff
*clefF4	*	*	*
16B- 16F 16D 16BB-\|	16bb-Jk 16dd 16b-\|	.	.
4B- 4F 4D 4BB-\|	4bb- 4dd 4b-\|	4ryy	.
4B- 4G 4E-\	(>8.b-/L	4g\	.
.	16gg/Jk)	.	.
=329	=329	=329	=329
*^	*	*	*
8.cL 8.A-/	4E-\	(>8.ggL 8.cc/	8.a-\L	.
16dJk 16B- 16A-/	.	16ffJk 16dd 16b- 16a-/)	16a-\Jk	.
16e-LL 16B- 16G 16E-\	4ryy	4ee-/	4b- 4g\	.
16e-\	.	.	.	.
16B-\	.	.	.	.
16G\JJ	.	.	.	.
!LO:N:vis=8.	!	!	!	!
4E-/	8E-\L	(>8.b-/L	4g\	.
.	8B-J 8G\	.	.	.
.	.	16gg/Jk)	.	.
=330	=330	=330	=330	=330
8.cL 8.A-/	4E-\	(>8.ggL 8.cc/	8.a-\L	.
16dJk 16B- 16A-/	.	16ffJk 16dd 16b-/)	16a-\Jk	.
8e- 8B- 8G 8E-\	4ryy	8ee-/	8b- 8g\	.
16r	.	16r	8ryy	.
16gKL| 16e- 16G\	.	16ee-KL| 16b-/	.	.
8.f| 8.d 8.F\	4ryy	8.ff| 8.dd 8.b-/	4ryy	.
16enJk| 16B-X 16En\	.	16ggJk| 16dd-X 16b-/	.	.
*v	*v	*	*	*
=331	=331	=331	=331
8f 8dn 8B- 8F\	16ff 16ddn/	16b-\KL	.
.	16r	16ryy	.
8r	8ryy	N[>8bb-J 8dd\	.
4d 4B- 4F\	16bb-\LLN]	4ryy	.
.	(>16dd\	.	.
.	16ee-\	.	.
.	16een\JJ	.	.
4e- 4c 4An 4F\	16gg\LL	4ryy	.
.	16ff\	.	.
.	16ee-X\	.	.
.	16cc\JJ)	.	.
*	*v	*v	*
!!LO:LB:g=original
=332	=332	=332
!LO:TX:t=P:problem=mixed beam	!	!
8d\L 8B-\	4b-\	.
(<32BB-/LL	.	p
32BBB-/	.	.
32BB-/	.	.
32BBB-/JJJ)	.	.
8BB-/L|	4r	.
(<32BB-/LL	.	.
32BBB-/	.	.
32BB-/	.	.
32BBB-/JJJ)	.	.
8BB-/L|	4r	.
(<32BB-/LL	.	.
32BBB-/	.	.
32BB-/	.	.
32BBB-/JJJ)	.	.
=333	=333	=333
8BB- 8BBB-/	16r	.
.	16d/LL	.
16r	16f/	.
16A- 16F 16D 16BB-\	16d/JJ	.
2A- 2F 2D 2BB-\	16a-/LL	.
.	16f/	.
.	16d/	.
.	16e-/JJ	.
.	16f/LL	.
.	16d/	.
.	16c/	.
.	16B-/JJ	.
=334	=334	=334
8BB- 8BBB-/	16r	.
.	16e-/LL	.
16r	16g/	.
16G 16E- 16BB-\	16e-/JJ	.
2G 2E- 2BB-\	16b-/LL	.
.	16g/	.
.	16e-/	.
.	16f/JJ	.
.	16g/LL	.
.	16e-/	.
.	16c/	.
.	16B-/JJ	.
=335	=335	=335
8BB- 8BBB-/	16r	.
.	16c/LL	.
16r	16e-/	.
16An 16F 16E- 16BB-\	16c/JJ	.
2A 2F 2E- 2BB-\	16f/LL	.
.	16e-/	.
.	16an/	.
.	16f/JJ	.
.	16cc/LL	.
.	16a/	.
.	16g/	.
.	16f/JJ	.
=336	=336	=336
4B- 4F 4D 4BB-\	8b- 8d/	.
.	16r	.
.	16bb-\	.
.	8qaan/	.
!	!	!LO:DY:rj
8.r	2bb-TT\	ff
16d 16B- 16A- 16F\	.	.
4d 4B- 4A- 4F\	.	.
!!LO:LB:g=original
=337	=337	=337
4B- 4BB-\	2.bb-TTT\	.
8.r	.	.
!	!	!LO:DY:t=ffo:rj
16f 16d 16B-\	.	ff
4f 4d 4B-\	.	.
=338	=338	=338
*	*^	*
8B- 8BB-\	(4bb-\TTT	4ryy	.
16r	.	.	.
*clefG2	*	*	*
16a- 16f 16d 16B-/	.	.	.
!	!	!	!LO:DY:t=ffo
.	(<16qqaan/LL	.	ff
.	16qqbb-/JJ)	.	.
8a- 8f 8d 8B-;>/	8b-;>\)	4ryy	.
8r;	8ryy	.	.
!LO:CL:ed	!	!	!
*clefF4	*	*	*
.	(>16qqaa-X\LL	.	<
.	16qqgg\	.	.
.	16qqbb-\	.	.
.	16qqaa-\	.	.
.	16qqccc\	.	.
.	16qqbb-\	.	.
.	16qqaa-\	.	.
.	16qqgg\	.	.
.	16qqff\	.	.
.	16qqeen\	.	.
.	16qqgg\	.	.
.	16qqff\	.	.
.	16qqaa-\	.	.
.	16qqgg\	.	.
.	16qqff\	.	.
.	16qqee-X\	.	.
.	16qqdd\	.	.
.	16qqcc\	.	.
.	16qqee-\	.	.
.	16qqdd\	.	.
.	16qqff\	.	.
.	16qqee-\	.	.
.	16qqdd\	.	.
.	16qqcc\JJ)	.	.
.	4qqb-\	.	.
.	(>8qqan'\L	.	.
.	8qqb-'\	.	.
.	8qqbn'\	.	.
.	8qqcc'\	.	.
.	8qqcc#X'\J)	.	.
.	4qqdd;>\	.	.
4B- 4G 4E-\	(>8.b-y/L	4g\	.
.	16gg/Jk)	.	[[
=339	=339	=339	=339
*^	*	*	*
8.cL 8.A-/	4E-\	(>8.ggL 8.cc/	8.a-\L	.
16dJk 16B- 16A-/	.	16ffJk 16dd 16b-/)	16a-\Jk	.
16e-LL 16B- 16G 16E-\	4ryy	4ee- 4b-/	4g\	.
16e-\	.	.	.	.
16B-\	.	.	.	.
16G\JJ	.	.	.	.
4E-/	8E-\L	8.b-/L	4g\	<
.	8B-J 8G\	.	.	.
.	.	16gg/Jk	.	[[
=340	=340	=340	=340	=340
*	*^	*	*	*
8.cL 8.A-/	4ryy	2E-\	8.gg/L	8.ccL 8.a-\	.
16dJk 16B- 16A-/	.	.	16ffJk 16dd/	16b-Jk 16a-\	.
8e- 8B-/	8G\	.	8ee- 8b-\	4ryy	.
16r	8ryy	.	16r	.	.
16gKL| 16G\	.	.	16ee-KL| 16b- 16g/	.	.
8.f 8.F\|	4ryy	4ryy	8.ff| 8.dd 8.b-/	4ryy	.
16e-Jk| 16E-\	.	.	16ggJk| 16ee- 16b-/	.	.
*v	*v	*v	*	*	*
=341	=341	=341	=341
(>8qE-/	.	.	.
8.e-\L)	4.aa-/	4.ff\	.
32d\LL	.	.	.
32c\JJJ	.	.	.
4d\	.	.	.
.	(>8bb- 8b-\|	8ryy	.
8.e-L 8.E-\	8.ggL 8.ee-\)	4ryy	.
16gJk 16G\	(>16bb-Jk| 16b-\	.	.
=342	=342	=342	=342
*clefG2	*	*	*
8b- 8B-/	8ffL 8dd\)	4ryy	.
!	!	!	!LO:DY:t=ffo
16r	16r	.	ff
*clefF4	*	*	*
16B-| 16F 16D 16BB-\	16bb-Jk| 16dd 16b-\	.	.
4B-| 4F 4D 4BB-\	4bb-| 4dd 4b-\	4ryy	.
!	!	!	!LO:DY:rj
4B- 4G 4E-\	(>8.b-/L	4g\	p<
.	16gg/Jk)	.	[[
=343	=343	=343	=343
*^	*	*	*
!	!	!	!	!LO:HP:a
8.cL 8.A-/	4E-\	8.ggL 8.cc/	8.a-\L	>
16dJk 16B- 16A-/	.	16ffJk 16dd 16b-/	16a-\Jk	]
16e-LL 16B- 16G 16E-\	4ryy	4ee-/ 4b-/ 4g/	4ryy	.
16e-\	.	.	.	.
16B-\	.	.	.	.
16G\JJ	.	.	.	.
4E-/	8E-\L	(>8.b-/L	4g\	<
.	8B-J 8G\	.	.	.
.	.	16gg/Jk)	.	[[
=344	=344	=344	=344	=344
!	!	!	!	!LO:HP:a
8.cL 8.A-/	4E-\	(>8.ggL 8.cc/	8.a-\L	>
16dJk 16B- 16A-/	.	16ffJk 16dd 16b-/	16a-\Jk	]]
16e- 16B- 16G/	16E-\LL	4ee-/ 4b-/ 4g/)	4ryy	.
16ryy	16e- 16E-'>\	.	.	.
8ryy	16B- 16BB-'>\	.	.	.
.	16GJJ 16GG'>\	.	.	.
!	!	!LO:TX:t=P:problem=w źródle kasownik zapisany nad obiegnikiem; a cały obiegnik - pod belką	!	!
4ryy	16A-LL 16AA-'>\	8.cc/LSSs	4a-\	.
.	16C'>\	.	.	.
.	16F'>\	.	.	.
.	16C'>\JJ	16ff/Jk	.	.
*v	*v	*	*	*
*	*v	*v	*
=345	=345	=345
!	!	!LO:HP:a
16BB-'\LL	4..b- 4..g/	<
16E-'\	.	.
16G'\	.	.
16B-'\JJ	.	.
8BB-/	.	.
8r	.	.
.	16b-KL| 16g/	.
4B- 4BB-\	8.cc| 8.an 8.f#X/	.
.	16ddJk| 16a-X 16fn/	[[
!!LO:PB:g=original
=346	=346	=346
*^	*	*
16E-\LL	4ryy	4.ee- 4.g 4.e-/	.
16G\	.	.	.
16E-\	.	.	.
16BB-\JJ	.	.	.
16GG\LL	4ryy	.	.
16E-\	.	.	.
16BB-\	.	8gg 8b- 8g\	.
16GG\JJ	.	.	.
4AA-/	16AA-\LL	8ccL| 8a-\	.
.	16C\	.	.
.	16F\	(>16gg\L	.
.	16C\JJ	16ff\JJ)	.
*v	*v	*	*
=347	=347	=347
16BB-\LL	4..b- 4..g/	.
16E-\	.	.
16G\	.	.
16B-\JJ	.	.
[4BB-\	.	.
.	16b-KL|> 16g/	<
4B- 4BB-\]	8.cc|> 8.an 8.f#X/	.
.	16ddJk|> 16a-X 16fn/	[[
=348	=348	=348
8B-L 8E-\	8ee-L 8g 8e-/	.
16B-\L	16b-/L	.
16B-\JJ	16b-/JJ	.
8e-\L	8ee-/L	.
8B-\	8b-/	.
8G\	8g/	.
8E-\J	8e-/J	.
=349	=349	=349
8BB-/	8B-/	.
!	!	!LO:DY:t=ffo:rj
16B-LL 16F 16D 16BB-\	16bb-LL 16dd 16b-\	ff
16B-JJ 16F 16D 16BB-\	16bb-JJ 16dd 16b-\	.
*tremolo	*tremolo	*
!	!LO:TX:a:t=....	!
8B-L 8F 8D 8BB-\	8bb-L 8dd 8b-'\	.
8B- 8F 8D 8BB-\	8bb- 8dd 8b-'\	.
8B- 8F 8D 8BB-\	8bb- 8dd 8b-'\	.
8B-J 8F 8D 8BB-\	8bb-J 8dd 8b-'\	.
*Xtremolo	*Xtremolo	*
=350	=350	=350
8B-L 8G 8E-\	8ggL 8ee- 8b-\	.
16B-\L	16b-\L	.
16B-\JJ	16b-\JJ	.
8e-\L	8ee-/L	.
8B-\	8b-/	.
8G\	8g/	.
8E-\J	8e-/J	.
=351	=351	=351
8BB-/	8B-/	.
16B-LL 16F 16D 16BB-\	16bb-LL 16dd 16b-\	.
16B-JJ 16F 16D 16BB-\	16bb-JJ 16dd 16b-\	.
*tremolo	*tremolo	*
!	!LO:TX:a:t=....	!
8B-L 8F 8D 8BB-\	8bb-L 8dd 8b-'\	.
8B- 8F 8D 8BB-\	8bb- 8dd 8b-'\	.
8B- 8F 8D 8BB-\	8bb- 8dd 8b-'\	.
8B-J 8F 8D 8BB-\	8bb-J 8dd 8b-'\	.
*Xtremolo	*Xtremolo	*
!!LO:LB:g=original
=352	=352	=352
4B- 4G 4E-\	4ee- 4b- 4g\	.
4r	4r	.
4E- 4EE-/	4cc#X 4g/	.
=353	=353	=353
2.D 2.DD;>/	2.dd 2.f#X;>/	.
=354||	=354||	=354||
!!!OMD: allegretto.
*k[bnenanf#]	*k[bnenanf#]	*
*M2/4	*M2/4	*
!	!	!LO:DY:rj
8GL 8GG\	4r	f
!	!	!LO:DY:rj
8d 8B 8G\	.	p
8d 8B 8G\	8r	.
8dJ 8B 8G\	(>16bb\LL	.
.	16ccc\JJ)	.
=355	=355	=355
*tremolo	*	*
!LO:TX:a:t=....	!	!
8dL 8B 8G'\	8ddd\L	.
8d 8B 8G'\	(>16gg\L	.
.	16aa\JJ)	.
8d 8B 8G'\	8gg\L	.
8dJ 8B 8G'\	8bb'\J	.
*Xtremolo	*	*
=356	=356	=356
8dL 8c 8A 8G\	(>8.dd^<\L	.
8dJ 8c 8A 8G\	.	.
.	32ee\LL	.
.	32ff#\JJJ	.
8dL 8B 8G\	8gg\L)	.
8dJ 8B 8G\	(>16bb\L	.
.	16ccc\JJ	.
=357	=357	=357
*tremolo	*	*
8dL 8B 8G\	8ddd\L)	.
8d 8B 8G\	(>16gg\L	.
.	16aa\JJ	.
8d 8B 8G\	8gg\L)	.
8dJ 8B 8G\	8bb'\J	.
*Xtremolo	*	*
=358	=358	=358
8dL 8c 8A 8G\	(>8.dd\L	.
8dJ 8c 8A 8G\	.	.
.	32ee\LL	.
.	32ff#\JJJ	.
8dL 8B 8G\	8gg\)	.
8dJ 8B 8G\	(<16bLL 16g/	.
.	16ccJJ 16a/)	.
!!LO:LB:g=original
=359	=359	=359
16D\LL	4.a 4.f#/	mf
16d\	.	.
16A\	.	.
16d\JJ	.	.
*rep	*	*
16D\LL	.	.
16d\	.	.
16A\	(<16bLL 16g/	.
16d\JJ	16ccJJ 16a/)	.
*Xrep	*	*
=360	=360	=360
16G\LL	(>8eeL 8cc^<\	.
16d\	.	.
16B\	8ddJ 8b\)	.
16d\JJ	.	.
*rep	*	*
16G\LL	8bL 8g'/	.
16d\	.	.
16B\	(<16bL 16g/	.
16d\JJ	16ccJJ 16a/)	.
*Xrep	*	*
=361	=361	=361
16D\LL	4.a 4.f#/	.
16d\	.	.
16A\	.	.
16d\JJ	.	.
*rep	*	*
16D\LL	.	.
16d\	.	.
16A\	(<16bLL 16g/	.
16d\JJ	16ccJJ 16a/)	.
*Xrep	*	*
=362	=362	=362
16G\LL	(>8eeL 8cc^<\	.
16d\	.	.
16B\	8ddJ 8b\)	.
16d\JJ	.	.
*rep	*	*
16G\LL	8bL 8g/	.
16d\	.	.
16B\	8ddJ 8b/	f
16d\JJ	.	.
*Xrep	*	*
=363	=363	=363
16E\LL	16cc#X/ 16a/	.
16A\	16r	.
16G\	8.bb 8.b^<\|	.
16A\JJ	.	.
16AA\LL	.	.
16G\	(>16aa\LL	.
16E 16C#X\	16gg\	.
16G\JJ	16ee\JJ)	.
=364	=364	=364
16D\LL	8dd\L|	.
16A\	.	.
.	(<8qee#X/	.
16F#\	8ff#\J)	.
16A\JJ	.	.
*rep	*	*
16D\LL	8dd\L|	.
16A\	.	.
.	(<8qgg#X/	.
16F#\	8aa\J)	.
16A\JJ	.	.
*Xrep	*	*
=365	=365	=365
16AA\LL	16cc#X 16a\	.
16G\	16r	.
16E 16C#X\	8.bb 8.b^<\	.
16G\JJ	.	.
*rep	*	*
16AA\LL	.	.
16G\	(>16aa\LL	.
16E 16C#\	16gg\	.
16G\JJ	16ee\JJ)	.
*Xrep	*	*
=366	=366	=366
8F# 8D\	8dd\L	.
!	!	!LO:DY:rj
8D 8AA 8DD/	8dddJ 8ff# 8dd^<\	f
4r	8r	.
!	!	!LO:DY:rj
.	(>16cc\LL	p
.	16dd\JJ)	.
=367	=367	=367
*tremolo	*	*
8EL 8C 8AA/	8ee\L	.
8E 8C 8AA/	(>16a\L	.
.	16b\JJ	.
8E 8C 8AA/	8a\L)	.
8EJ 8C 8AA/	8cc'\J	.
*Xtremolo	*	*
=368	=368	=368
8EL 8D 8BB 8AA/	(<8.e^</L	.
8EJ 8D 8BB 8AA/	.	.
.	32f#/LL	.
.	32g#X/JJJ	.
8EL 8C 8AA/	8a/L)	.
8EJ 8C 8AA/	(<16cc/L	.
.	16dd/JJ)	.
=369	=369	=369
*tremolo	*	*
8EL 8C 8AA/	8ee\L	.
8E 8C 8AA/	(>16a\L	.
.	16b\JJ	.
8E 8C 8AA/	8a\L)	.
8EJ 8C 8AA/	8cc'\J	.
*Xtremolo	*	*
=370	=370	=370
8EL 8D 8BB 8AA/	(<8.e^>/L	.
8EJ 8D 8BB 8AA/	.	.
.	32f#/LL	.
.	32g#X/JJJ	.
8EL 8C 8AA/	8a/)	.
8EJ 8C 8AA/	(>16b\LL	.
.	16cc\JJ)	.
=371	=371	=371
*tremolo	*	*
8FnL 8D 8BB 8GG/	8dd\L	.
8F 8D 8BB 8GG/	(>16g\L	.
.	16a\JJ	.
8F 8D 8BB 8GG/	8g\L)	.
8FJ 8D 8BB 8GG/	8dd'\J	<
*Xtremolo	*	*
=372	=372	=372
8EL 8C\	8ee'\L	.
8E 8C\	8ff#'\J	.
.	(<16qqee/LL	[ >
.	16qqff#/JJ	.
8E 8C\	8gg\L)	.
8AJ 8E 8C\	16ff#'\L	.
.	16ee'\JJ	]]
=373	=373	=373
8BL 8G 8D\	(>16ee\LL	.
.	16dd\J)	.
8B 8G 8D\	8b'\J	.
8c 8A 8F# 8D\	(>16dd\LL	.
.	16cc\J)	.
8cJ 8A 8F# 8D\	8a'\J	.
!!LO:LB:g=original
=374	=374	=374
*tremolo	*	*
8BL 8G\	(>16dd\LL	.
.	16ee\	.
8B 8G\	16dd\	.
.	16cc\JJ	.
8B 8G\J	8b\L)	.
8r	(>16b\L	.
.	16cc\JJ)	.
=375	=375	=375
8FnL 8D 8BB 8GG\	8dd\L	.
8F 8D 8BB 8GG\	(>16g\L	.
.	16a\JJ	<
8F 8D 8BB 8GG\	8g\L)	.
8FJ 8D 8BB 8GG\	8dd'\J	.
*Xtremolo	*	*
=376	=376	=376
8EL 8C\	8ee'\L	.
8E 8C\	8ff#'\J	.
.	(<16qeeL	.
.	16qff#J	.
8E 8C\	8gg\L)	[ >
8AJ 8E 8C\	16ff#'\L	.
.	16ee'\JJ	]]
=377	=377	=377
8BL 8G 8D\	16dd\LL	.
.	16bb\	.
8B 8G 8D\	16gg\	.
.	[>16dd\JJ	.
8c 8A 8F# 8D\	16dd\LL]	.
.	16cc\	.
8cJ 8A 8F# 8D\	16b\	.
.	16a\JJ	.
=378	=378	=378
!	!	!LO:DY:rj
8BL 8G\	16bLL 16g'\	f
.	16cc 16a'\	.
8BJ 8G\	16dd 16b'\	.
.	16eeJJ 16cc'\	.
8r	16ff#LL 16dd'\	.
.	16gg 16ee'\	.
8B 8G\	16aa 16ff#'\	.
.	16bbJJ 16gg'\	.
=379	=379	=379
8AL 8F# 8D\	16cccLL 16aa'\	.
.	16bb 16gg'\	.
8AJ 8F# 8D\	16aa 16ff#'\	.
.	16ggJJ 16ee'\	.
8r	16ff#LL 16dd'\	.
.	16ee 16cc'\	.
8c 8A 8F# 8D\	16dd 16b'\	.
.	16ccJJ 16a'\	.
=380	=380	=380
8B 8G\	8bL 8g\	.
8r	8ggJ 8b 8g'\	.
8B 8G 8E\	8r	.
!LO:TX:a:i:t=V&colon; S&colon;	!	!
8r	8gg 8b 8g'\	.
!!LO:PB:g=original
=381	=381	=381
8A 8E 8C\	8r	.
8r	8aa 8cc 8a\	.
8c 8A 8D\	8r	.
8r	8ff# 8dd 8cc 8a\	.
=382	=382	=382
8BL 8G\	16ggLL 16dd 16b 16g\	.
.	16cc 16a'\	.
8BJ 8G\	16dd 16b'\	.
.	16eeJJ 16cc'\	.
8r	16ff#LL 16dd'\	.
.	16gg 16ee'\	.
8B 8G\	16aa 16ff#'\	.
.	16bbJJ 16gg'\	.
=383	=383	=383
8AL 8F# 8D\	16cccLL 16aa'\	.
.	16bb 16gg'\	.
8AJ 8F# 8D\	16aa 16ff#'\	.
.	16ggJJ 16ee'\	.
8r	16ff#LL 16dd'\	.
.	16ee 16cc'\	.
8c 8A 8F# 8D\	16dd 16b'\	.
.	16ccJJ 16a'\	.
=384	=384	=384
8B 8G\	8bL 8g\	.
8r	8ggJ 8b 8g\	.
8B 8G 8E\	8r	.
8r	8gg 8b 8g\	.
=385	=385	=385
8A 8E 8C\	8r	.
8r	8aa 8cc 8a\	.
8c 8A 8D\	8r	.
8r	8ff# 8dd 8cc 8a\	.
=386	=386	=386
8B 8G\	8ggL 8dd 8b\	.
8r	(>32gg\LL	.
.	32aa\	.
.	32bb\	.
.	32ccc\JJJ	.
8r	8ddd\L)	.
16dLL 16B 16G\	16bbL 16gg 16dd'\	.
16dJJ 16B 16G\	16bbJJ 16gg 16dd'\	.
!!LO:LB:g=original
=387	=387	=387
8d 8A 8D\	8aaL 8ff# 8dd'\	.
8r	(>32aa\LL	.
.	32bb\	.
.	32ccc\	.
.	32ccc#X\JJJ	.
8r	8ddd\L)	.
16dLL 16A 16F# 16D\	16cccnL 16dd'\	.
16dJJ 16A 16F# 16D\	16cccJJ 16dd'\	.
=388	=388	=388
8d 8B 8G\	8bbL 8gg 8dd'\	.
8r	(>32gg\LL	.
.	32aa\	.
.	32bb\	.
.	32ccc\JJJ	.
8r	8ddd\L)	.
16dLL 16B 16G\	16bbL 16gg 16dd'\	.
16dJJ 16B 16G\	16bbJJ 16gg 16dd'\	.
=389	=389	=389
8d 8A 8F# 8D\	8aaL 8ff# 8dd'\	.
8r	(>32aa\LL	.
.	32bb\	.
.	32ccc\	.
.	32ccc#X\JJJ	.
8r	8ddd\L)	.
16dLL 16A 16F# 16D\	16cccnL 16aa 16dd'\	.
16dJJ 16A 16F# 16D\	16cccJJ 16aa 16dd'\	.
=390	=390	=390
!	!	!LO:DY:t=ffo
8d 8B 8G\	8bbL 8gg 8dd\	ff
8r	16dddL 16dd\	.
.	16dddJJ 16dd\	.
8d 8A 8F# 8D\	8aaL 8ff# 8dd\	.
8r	16dddL 16dd\	.
.	16dddJJ 16dd\	.
=391	=391	=391
*rep	*rep	*
8d 8B 8G\	8bbL 8gg 8dd\	.
8r	16dddL 16dd\	.
.	16dddJJ 16dd\	.
8d 8A 8F# 8D\	8aaL 8ff# 8dd\	.
8r	16dddL 16dd\	.
.	16dddJJ 16dd\	.
*Xrep	*Xrep	*
=392	=392	=392
*rep	*rep	*
8d 8B 8G\	8bbL 8gg 8dd\	.
8r	16dddL 16dd\	.
.	16dddJJ 16dd\	.
8d 8A 8F# 8D\	8aaL 8ff# 8dd\	.
8r	16dddL 16dd\	.
.	16dddJJ 16dd\	.
*Xrep	*Xrep	*
=393	=393	=393
*	*rep	*
8d 8B 8G\	8bbL 8gg 8dd\	.
8r	16dddL 16dd\	.
.	16dddJJ 16dd\	.
8c 8A 8F# 8D\	8aaL 8ff# 8dd\	.
8r	16dddL 16dd\	.
.	16dddJJ 16dd\	.
*	*Xrep	*
!!LO:LB:g=original
=394	=394	=394
4B 4G\	4gg 4dd 4b\	.
4r	4r	.
=395	=395	=395
4d 4A 4F# 4D\	4ddd 4ff# 4dd\	.
4r	4r	.
=396	=396	=396
4d 4B 4G\	4gg 4dd 4b\	.
4r	4r	.
==	==	==
*-	*-	*-
!!!system-decoration: {(s1,s2)}
!!!RDF**kern: | = vertical stroke
!!!RDF**dynam: > = "diminuendo", 'fontstyle="italic"
!!!RDF**dynam: < = "cresc:", 'fontstyle="italic"
!!!RDF**kern: N = linked
!!!RDF**kern: > = above
!!!RDF**kern: < = below
!!!EED: Antoni Szymański
!!!EEV: 2021-06-20
!!!ENC: Marcin Jachim
!!!END: 2021-06-12
!!!YEC: Copyright 2022 Narodowy Instytut Fryderyka Chopina (https://polishscores.org)
!!!YEM: Licence CC BY 4.0 (https://creativecommons.org/licenses/by/4.0)
